(Slot-6mm-DOC-1.5-SO-0.25-500mm-min)
(Machine)
(  vendor: Autodesk)
(  model: Sainsmart 3018pro)
(  description: 3018)
(T3 D=3.175 CR=0 - ZMIN=-1.5 - flat end mill)
G90 G94
G17
G21
(When using Fusion for Personal Use, the feedrate of rapid)
(moves is reduced to match the feedrate of cutting moves,)
(which can increase machining time. Unrestricted rapid moves)
(are available with a Fusion Subscription.)
G28 G91 Z0
G90

(Adaptive2)
T3
S5000 M3
G17 G90 G94
G54
G0 Z4
G0 X17.545 Y-2.41
G1 Z2.5 F500
Z-0.865
Z-1.182
X17.539 Y-2.405 Z-1.253
X17.52 Y-2.391 Z-1.32
X17.489 Y-2.369 Z-1.38
X17.449 Y-2.339 Z-1.431
X17.4 Y-2.303 Z-1.469
X17.346 Y-2.264 Z-1.492
X17.289 Y-2.222 Z-1.5
G3 X15.669 Y-1.572 I-2.08 J-2.838
G1 X15.523 Y-1.558
X15.377 Y-1.525
X15.333 Y-1.509
X15.189 Y-1.466
X15.042 Y-1.436
X14.894 Y-1.413
X14.724 Y-1.393
X14.487 Y-1.372
X14.122 Y-1.349
X13.481 Y-1.328
X12.838 Y-1.323
X11.554 Y-1.322
X11.036
X10.834 Y-1.336
X10.636 Y-1.379
X10.446 Y-1.45
G3 X10.304 Y-1.875 Z-1.3 I0.142 J-0.284
X10.583 Y-2.051 I0.284 J0.142
G1 X15.21 Y-2.122
G3 X15.51 Y-1.922 I0.005 J0.317
X15.333 Y-1.509 Z-1.5 I-0.295 J0.117
G1 X15.231 Y-1.473
X15.085 Y-1.407
X15.042 Y-1.385
X14.909 Y-1.316
X14.766 Y-1.27
X14.62 Y-1.234
X14.473 Y-1.206
X14.312 Y-1.18
X14.121 Y-1.156
X13.892 Y-1.133
X13.551 Y-1.108
X12.987 Y-1.084
X12.345 Y-1.075
X11.703 Y-1.073
X11.504 Y-1.075
X11.227 Y-1.103
X10.959 Y-1.181
X10.711 Y-1.306
X10.584 Y-1.385
X10.565 Y-1.396
X10.446 Y-1.45
G3 X10.304 Y-1.875 Z-1.3 I0.142 J-0.284
X10.594 Y-2.051 I0.284 J0.142
G1 X14.872 Y-1.966
G3 X15.13 Y-1.825 I-0.006 J0.317
X15.042 Y-1.385 Z-1.5 I-0.264 J0.176
G1 X14.94 Y-1.321
X14.845 Y-1.256
X14.718 Y-1.176
X14.582 Y-1.113
X14.44 Y-1.064
X14.295 Y-1.024
X14.149 Y-0.991
X14.001 Y-0.964
X13.818 Y-0.935
X13.607 Y-0.909
X13.345 Y-0.883
X12.963 Y-0.857
X12.38 Y-0.834
X12.099 Y-0.831
X11.882 Y-0.834
X11.733 Y-0.841
X11.665 Y-0.847
X11.372 Y-0.905
X11.097 Y-1.022
X10.854 Y-1.195
G3 X10.84 Y-1.643 Z-1.3 I0.218 J-0.231
G1 X10.887 Y-1.684
X10.942 Y-1.716
X11.002 Y-1.735
X11.064 Y-1.743
X14.647 Y-1.827
G3 X14.909 Y-1.7 I0.007 J0.317
X14.845 Y-1.256 Z-1.5 I-0.254 J0.19
G1 X14.821 Y-1.239
X14.794 Y-1.216
X14.725 Y-1.148
X14.613 Y-1.049
X14.485 Y-0.97
X14.349 Y-0.908
X14.208 Y-0.857
X14.064 Y-0.814
X13.919 Y-0.777
X13.772 Y-0.747
X13.607 Y-0.717
X13.418 Y-0.689
X13.149 Y-0.657
X12.876 Y-0.632
X12.61 Y-0.615
X12.385 Y-0.607
X12.235 Y-0.606
X12.085 Y-0.61
X11.936 Y-0.62
X11.879 Y-0.626
X11.622 Y-0.676
X11.378 Y-0.772
X11.156 Y-0.911
X10.964 Y-1.089
G3 X11.003 Y-1.536 Z-1.3 I0.243 J-0.204
G1 X11.047 Y-1.567
X11.095 Y-1.59
X11.147 Y-1.605
X11.2 Y-1.61
X11.233 Y-1.611
X14.487 Y-1.684
X14.549 Y-1.679
X14.608 Y-1.663
X14.664 Y-1.635
X14.713 Y-1.597
G3 X14.725 Y-1.148 Z-1.5 I-0.218 J0.231
G1 X14.648 Y-1.071
X14.591 Y-1.003
X14.489 Y-0.893
X14.367 Y-0.806
X14.234 Y-0.735
X14.096 Y-0.676
X13.955 Y-0.627
X13.811 Y-0.584
X13.666 Y-0.547
X13.519 Y-0.516
X13.356 Y-0.485
X13.185 Y-0.458
X13 Y-0.435
X12.826 Y-0.417
X12.667 Y-0.406
X12.518 Y-0.4
X12.368 Y-0.398
X12.218 Y-0.403
X12.128 Y-0.409
X11.831 Y-0.46
X11.551 Y-0.57
X11.298 Y-0.735
X11.084 Y-0.947
X11.002 Y-1.046
X10.964 Y-1.089
G3 X11.003 Y-1.536 Z-1.3 I0.243 J-0.204
G1 X11.05 Y-1.569
X11.103 Y-1.593
X11.159 Y-1.607
X11.217 Y-1.61
X11.233
X14.302 Y-1.517
X14.35 Y-1.515
X14.416 Y-1.506
X14.479 Y-1.484
X14.535 Y-1.448
G3 X14.591 Y-1.003 Z-1.5 I-0.195 J0.25
G1 X14.544 Y-0.947
X14.502 Y-0.89
X14.485 Y-0.863
X14.4 Y-0.74
X14.283 Y-0.645
X14.155 Y-0.567
X14.02 Y-0.501
X13.881 Y-0.445
X13.739 Y-0.396
X13.595 Y-0.354
X13.45 Y-0.317
X13.303 Y-0.286
X13.156 Y-0.26
X13.007 Y-0.238
X12.858 Y-0.221
X12.709 Y-0.209
X12.559 Y-0.202
X12.409 Y-0.204
X12.332 Y-0.207
X12.056 Y-0.246
X11.791 Y-0.334
X11.546 Y-0.468
X11.329 Y-0.644
X11.148 Y-0.856
X11.084 Y-0.947
G3 X11.174 Y-1.387 Z-1.3 I0.265 J-0.175
G1 X11.232 Y-1.417
X11.295 Y-1.435
X11.36 Y-1.439
X11.412 Y-1.437
X14.129 Y-1.342
X14.221 Y-1.339
X14.273 Y-1.333
X14.323 Y-1.319
X14.369 Y-1.296
G3 X14.485 Y-0.863 Z-1.5 I-0.159 J0.275
G1 X14.447 Y-0.801
X14.405 Y-0.721
X14.328 Y-0.592
X14.219 Y-0.489
X14.095 Y-0.404
X13.964 Y-0.331
X13.828 Y-0.268
X13.688 Y-0.213
X13.546 Y-0.167
X13.401 Y-0.126
X13.255 Y-0.092
X13.108 Y-0.064
X12.96 Y-0.042
X12.81 Y-0.026
X12.661 Y-0.019
X12.511 Y-0.018
X12.361 Y-0.027
X12.212 Y-0.046
X12.065 Y-0.075
X12.053 Y-0.078
X11.791 Y-0.183
X11.555 Y-0.338
X11.354 Y-0.536
X11.196 Y-0.77
G3 X11.34 Y-1.195 Z-1.3 I0.285 J-0.141
G1 X11.387 Y-1.214
X11.436 Y-1.225
X11.487 Y-1.228
X11.583 Y-1.226
X14.014 Y-1.179
X14.125 Y-1.177
X14.193 Y-1.168
X14.257 Y-1.145
G3 X14.405 Y-0.721 Z-1.5 I-0.138 J0.286
G1 X14.356 Y-0.629
X14.343 Y-0.593
X14.285 Y-0.455
X14.184 Y-0.344
X14.066 Y-0.251
X13.939 Y-0.171
X13.806 Y-0.102
X13.669 Y-0.042
X13.528 Y0.01
X13.385 Y0.054
X13.239 Y0.091
X13.092 Y0.12
X12.944 Y0.142
X12.794 Y0.156
X12.644 Y0.162
X12.598 Y0.161
X12.272 Y0.121
X11.962 Y0.013
X11.681 Y-0.158
X11.443 Y-0.384
X11.258 Y-0.655
X11.196 Y-0.77
G3 X11.34 Y-1.195 Z-1.3 I0.285 J-0.141
G1 X11.394 Y-1.216
X11.45 Y-1.227
X11.508
X11.583 Y-1.22
X13.892 Y-1.022
X14.068 Y-1.006
X14.104 Y-1.001
X14.138 Y-0.992
G3 X14.343 Y-0.593 Z-1.5 I-0.097 J0.302
G1 X14.313 Y-0.509
X14.292 Y-0.434
X14.243 Y-0.292
X14.144 Y-0.18
X14.029 Y-0.084
X13.905 Y0
X13.773 Y0.073
X13.637 Y0.136
X13.497 Y0.19
X13.354 Y0.235
X13.209 Y0.272
X13.062 Y0.301
X12.913 Y0.319
X12.763 Y0.328
X12.613
X12.464 Y0.314
X12.316 Y0.291
X12.17 Y0.255
X12.146 Y0.247
X11.865 Y0.114
X11.621 Y-0.077
X11.423 Y-0.316
X11.282 Y-0.592
G3 X11.48 Y-0.995 Z-1.3 I0.301 J-0.102
G1 X11.543 Y-1.009
X11.607 Y-1.011
X11.726 Y-1.002
X13.813 Y-0.842
X14.008 Y-0.827
X14.06 Y-0.819
G3 X14.292 Y-0.434 Z-1.5 I-0.077 J0.308
G1 X14.271 Y-0.363
X14.256 Y-0.288
X14.22 Y-0.143
X14.125 Y-0.027
X14.013 Y0.074
X13.891 Y0.161
X13.762 Y0.237
X13.628 Y0.303
X13.489 Y0.36
X13.346 Y0.406
X13.201 Y0.443
X13.053 Y0.471
X12.904 Y0.488
X12.754 Y0.496
X12.604 Y0.493
X12.455 Y0.48
X12.308 Y0.452
X12.163 Y0.413
X11.929 Y0.301
X11.72 Y0.147
X11.545 Y-0.044
X11.407 Y-0.264
X11.314 Y-0.506
G3 X11.547 Y-0.889 Z-1.3 I0.309 J-0.075
G1 X11.601 Y-0.897
X11.655 Y-0.896
X11.794 Y-0.882
X13.748 Y-0.68
X13.976 Y-0.656
X13.995 Y-0.653
G3 X14.256 Y-0.288 Z-1.5 I-0.052 J0.313
G1 X14.242 Y-0.218
X14.236 Y-0.143
X14.225 Y-0.068
X14.154 Y0.064
X14.055 Y0.177
X13.942 Y0.275
X13.819 Y0.361
X13.689 Y0.435
X13.552 Y0.497
X13.412 Y0.55
X13.268 Y0.592
X13.122 Y0.625
X12.973 Y0.647
X12.824 Y0.66
X12.674 Y0.661
X12.524 Y0.652
X12.505 Y0.649
X12.192 Y0.563
X11.906 Y0.409
X11.663 Y0.194
X11.475 Y-0.071
X11.352 Y-0.372
X11.314 Y-0.506
G3 X11.547 Y-0.889 Z-1.3 I0.309 J-0.075
G1 X11.614 Y-0.898
X11.68 Y-0.893
X11.793 Y-0.872
X13.691 Y-0.524
X13.936 Y-0.479
X13.976 Y-0.471 Z-1.316
G3 X14.236 Y-0.143 Z-1.5 I-0.057 J0.312
G1 X14.229 Y-0.072
X14.228 Y-0.027
X14.217 Y0.122
X14.133 Y0.247
X14.031 Y0.356
X13.916 Y0.453
X13.792 Y0.537
X13.661 Y0.61
X13.524 Y0.672
X13.383 Y0.723
X13.239 Y0.764
X13.092 Y0.795
X12.944 Y0.815
X12.794 Y0.824
X12.644 Y0.818
X12.495 Y0.802
X12.343 Y0.768
X12.062 Y0.648
X11.814 Y0.471
X11.609 Y0.245
X11.457 Y-0.02
X11.365 Y-0.311
G3 X11.626 Y-0.676 Z-1.3 I0.313 J-0.052
G1 X11.676 Y-0.68
X11.725 Y-0.677
X11.872 Y-0.654
X13.663 Y-0.383
X13.909 Y-0.346
X13.958 Y-0.339 Z-1.32
G3 X14.228 Y-0.027 Z-1.5 I-0.048 J0.314
G1 X14.226 Y0.074
Y0.118
X14.218 Y0.268
X14.138 Y0.395
X14.037 Y0.507
X13.924 Y0.605
X13.801 Y0.691
X13.671 Y0.766
X13.535 Y0.829
X13.395 Y0.882
X13.251 Y0.924
X13.104 Y0.955
X12.955 Y0.974
X12.925 Y0.976
X12.622 Y0.962
X12.329 Y0.886
X12.056 Y0.753
X11.817 Y0.568
X11.619 Y0.337
X11.473 Y0.072
X11.383 Y-0.218
X11.365 Y-0.311
G3 X11.626 Y-0.676 Z-1.3 I0.313 J-0.052
G1 X11.686 Y-0.68
X11.746 Y-0.673
X11.871 Y-0.645
X13.657 Y-0.251
X13.899 Y-0.198
X13.977 Y-0.181 Z-1.332
G3 X14.226 Y0.118 Z-1.5 I-0.068 J0.31
G1 X14.225 Y0.264
X14.218 Y0.414
X14.141 Y0.543
X14.044 Y0.657
X13.932 Y0.757
X13.81 Y0.845
X13.681 Y0.921
X13.546 Y0.986
X13.406 Y1.039
X13.262 Y1.081
X13.114 Y1.109
X12.965 Y1.126
X12.815 Y1.128
X12.665 Y1.118
X12.517 Y1.094
X12.372 Y1.057
X12.23 Y1.008
X12.202 Y0.994
X11.948 Y0.841
X11.73 Y0.639
X11.56 Y0.395
X11.444 Y0.122
X11.388 Y-0.17
G3 X11.688 Y-0.504 Z-1.3 I0.317 J-0.016
G1 X11.729 Y-0.503
X11.77 Y-0.497
X11.932 Y-0.463
X13.656 Y-0.102
X13.899 Y-0.051
X13.973 Y-0.036 Z-1.331
G3 X14.225 Y0.264 Z-1.5 I-0.065 J0.311
G1 Y0.41
X14.218 Y0.56
X14.145 Y0.691
X14.05 Y0.807
X13.94 Y0.909
X13.819 Y0.999
X13.691 Y1.076
X13.555 Y1.141
X13.415 Y1.194
X13.271 Y1.235
X13.124 Y1.263
X12.974 Y1.28
X12.825 Y1.284
X12.675 Y1.275
X12.526 Y1.255
X12.38 Y1.219
X12.239 Y1.17
X12.098 Y1.108
X11.866 Y0.94
X11.673 Y0.729
X11.526 Y0.483
X11.433 Y0.212
X11.396 Y-0.072
X11.388 Y-0.17
G3 X11.688 Y-0.504 Z-1.3 I0.317 J-0.016
G1 X11.739 Y-0.502
X11.789 Y-0.493
X11.93 Y-0.454
X13.66 Y0.024
X13.9 Y0.09
X13.992 Y0.115 Z-1.339
G3 X14.225 Y0.41 Z-1.5 I-0.084 J0.306
G1 Y0.556
X14.218 Y0.706
X14.149 Y0.839
X14.056 Y0.957
X13.947 Y1.061
X13.828 Y1.151
X13.699 Y1.229
X13.564 Y1.294
X13.424 Y1.347
X13.28 Y1.388
X13.133 Y1.417
X12.984 Y1.435
X12.834 Y1.441
X12.684 Y1.434
X12.535 Y1.415
X12.388 Y1.383
X12.378 Y1.38
X12.113 Y1.262
X11.877 Y1.092
X11.681 Y0.878
X11.532 Y0.629
X11.437 Y0.354
X11.4 Y0.066
X11.396 Y-0.072
G3 X11.716 Y-0.386 Z-1.3 I0.317 J0.003
G1 X11.76 Y-0.383
X11.802 Y-0.374
X11.957 Y-0.329
X13.661 Y0.165
X13.9 Y0.234
X13.996 Y0.262 Z-1.34
G3 X14.225 Y0.556 Z-1.5 I-0.088 J0.305
G1 Y0.733
X14.218 Y0.883
X14.143 Y1.013
X14.047 Y1.128
X13.936 Y1.229
X13.815 Y1.318
X13.686 Y1.393
X13.55 Y1.457
X13.409 Y1.509
X13.264 Y1.548
X13.117 Y1.577
X12.968 Y1.593
X12.818 Y1.598
X12.668 Y1.591
X12.52 Y1.567
X12.374 Y1.532
X12.231 Y1.48
X11.954 Y1.313
X11.722 Y1.088
X11.546 Y0.816
X11.437 Y0.511
X11.4 Y0.189
Y0.066
G3 X11.72 Y-0.248 Z-1.3 I0.317 J0.003
G1 X11.766 Y-0.245
X11.811 Y-0.234
X11.96 Y-0.188
X13.663 Y0.336
X13.9 Y0.409
X14.001 Y0.441 Z-1.342
G3 X14.225 Y0.733 Z-1.5 I-0.093 J0.303
G1 Y0.879
X14.218 Y1.029
X14.147 Y1.161
X14.053 Y1.278
X13.943 Y1.38
X13.823 Y1.469
X13.694 Y1.546
X13.558 Y1.61
X13.418 Y1.662
X13.273 Y1.703
X13.126 Y1.732
X12.977 Y1.75
X12.827 Y1.755
X12.677 Y1.748
X12.529 Y1.727
X12.383 Y1.691
X12.242 Y1.642
X12.105 Y1.581
X12.098 Y1.577
X11.862 Y1.402
X11.667 Y1.182
X11.521 Y0.927
X11.431 Y0.647
X11.4 Y0.355
Y0.189
G3 X11.728 Y-0.117 Z-1.3 I0.317 J0.011
G1 X11.771 Y-0.113
X11.813 Y-0.103
X11.967 Y-0.054
X13.664 Y0.48
X13.901 Y0.555
X14.003 Y0.587 Z-1.343
G3 X14.225 Y0.879 Z-1.5 I-0.095 J0.303
G1 Y1.03
X14.218 Y1.18
X14.149 Y1.313
X14.056 Y1.431
X13.947 Y1.534
X13.826 Y1.623
X13.698 Y1.7
X13.562 Y1.765
X13.422 Y1.818
X13.278 Y1.859
X13.131 Y1.888
X12.982 Y1.906
X12.832 Y1.912
X12.682 Y1.905
X12.533 Y1.885
X12.387 Y1.853
X12.242 Y1.805
X11.961 Y1.638
X11.726 Y1.412
X11.548 Y1.139
X11.438 Y0.832
X11.4 Y0.508
Y0.355
G3 X11.728 Y0.048 Z-1.3 I0.317 J0.011
G1 X11.77 Y0.053
X11.811 Y0.062
X11.968 Y0.111
X13.663 Y0.633
X13.9 Y0.707
X14.001 Y0.738 Z-1.342
G3 X14.225 Y1.03 Z-1.5 I-0.094 J0.303
G1 Y1.212
X14.218 Y1.362
X14.141 Y1.491
X14.043 Y1.605
X13.932 Y1.705
X13.81 Y1.792
X13.68 Y1.867
X13.544 Y1.93
X13.403 Y1.982
X13.258 Y2.021
X13.111 Y2.049
X12.962 Y2.065
X12.812 Y2.069
X12.662 Y2.061
X12.513 Y2.041
X12.368 Y2.003
X12.224 Y1.953
X11.949 Y1.785
X11.718 Y1.56
X11.545 Y1.288
X11.437 Y0.984
X11.4 Y0.664
Y0.508
G3 X11.728 Y0.202 Z-1.3 I0.317 J0.011
G1 X11.772 Y0.206
X11.815 Y0.217
X11.967 Y0.266
X13.664 Y0.811
X13.901 Y0.887
X14.005 Y0.921 Z-1.344
G3 X14.225 Y1.212 Z-1.5 I-0.097 J0.302
G1 Y1.358
X14.218 Y1.508
X14.145 Y1.639
X14.05 Y1.755
X13.939 Y1.856
X13.818 Y1.945
X13.688 Y2.02
X13.553 Y2.084
X13.412 Y2.136
X13.267 Y2.176
X13.12 Y2.204
X12.971 Y2.221
X12.821 Y2.227
X12.671 Y2.22
X12.523 Y2.2
X12.377 Y2.164
X12.235 Y2.114
X12.099 Y2.053
X12.094 Y2.05
X11.859 Y1.875
X11.665 Y1.655
X11.52 Y1.4
X11.431 Y1.121
X11.4 Y0.829
Y0.664
G3 X11.728 Y0.357 Z-1.3 I0.317 J0.011
G1 X11.771 Y0.362
X11.814 Y0.372
X11.968 Y0.421
X13.664 Y0.959
X13.901 Y1.034
X14.004 Y1.066 Z-1.343
G3 X14.225 Y1.358 Z-1.5 I-0.096 J0.303
G1 Y1.504
X14.218 Y1.654
X14.148 Y1.787
X14.055 Y1.904
X13.946 Y2.007
X13.825 Y2.096
X13.696 Y2.173
X13.561 Y2.237
X13.42 Y2.29
X13.276 Y2.331
X13.129 Y2.36
X12.98 Y2.378
X12.83 Y2.385
X12.68 Y2.378
X12.532 Y2.358
X12.385 Y2.327
X12.241 Y2.279
X11.961 Y2.113
X11.726 Y1.887
X11.548 Y1.613
X11.438 Y1.306
X11.4 Y0.982
Y0.829
G3 X11.728 Y0.523 Z-1.3 I0.317 J0.011
G1 X11.77 Y0.527
X11.811 Y0.537
X11.968 Y0.585
X13.663 Y1.107
X13.9 Y1.18
X14.001 Y1.212 Z-1.342
G3 X14.225 Y1.504 Z-1.5 I-0.093 J0.303
G1 Y1.679
X14.218 Y1.829
X14.142 Y1.959
X14.046 Y2.073
X13.934 Y2.174
X13.813 Y2.262
X13.683 Y2.337
X13.547 Y2.401
X13.406 Y2.452
X13.262 Y2.492
X13.114 Y2.52
X12.965 Y2.537
X12.815 Y2.542
X12.665 Y2.535
X12.517 Y2.515
X12.371 Y2.478
X12.23 Y2.429
X12.093 Y2.367
X11.858 Y2.192
X11.664 Y1.972
X11.52 Y1.717
X11.43 Y1.438
X11.4 Y1.147
Y0.982
G3 X11.728 Y0.676 Z-1.3 I0.317 J0.011
G1 X11.772 Y0.68
X11.814 Y0.69
X11.968 Y0.739
X13.664 Y1.28
X13.901 Y1.355
X14.004 Y1.388 Z-1.344
G3 X14.225 Y1.679 Z-1.5 I-0.096 J0.303
G1 Y1.825
X14.218 Y1.975
X14.146 Y2.107
X14.051 Y2.223
X13.941 Y2.325
X13.821 Y2.414
X13.691 Y2.49
X13.556 Y2.554
X13.415 Y2.606
X13.271 Y2.647
X13.124 Y2.676
X12.975 Y2.694
X12.825 Y2.7
X12.675 Y2.693
X12.526 Y2.674
X12.38 Y2.642
X12.373 Y2.639
X12.104 Y2.517
X11.865 Y2.343
X11.669 Y2.122
X11.522 Y1.866
X11.431 Y1.585
X11.4 Y1.291
Y1.147
G3 X11.728 Y0.84 Z-1.3 I0.317 J0.011
G1 X11.77 Y0.845
X11.812 Y0.854
X11.968 Y0.903
X13.663 Y1.428
X13.9 Y1.502
X14.002 Y1.533 Z-1.343
G3 X14.225 Y1.825 Z-1.5 I-0.094 J0.303
G1 Y1.971
X14.218 Y2.121
X14.149 Y2.254
X14.057 Y2.372
X13.948 Y2.476
X13.828 Y2.566
X13.699 Y2.643
X13.564 Y2.708
X13.424 Y2.761
X13.279 Y2.802
X13.133 Y2.832
X12.984 Y2.851
X12.834 Y2.857
X12.684 Y2.852
X12.535 Y2.831
X12.389 Y2.797
X12.247 Y2.748
X12.238 Y2.744
X11.959 Y2.577
X11.724 Y2.351
X11.547 Y2.078
X11.438 Y1.772
X11.4 Y1.448
Y1.291
G3 X11.728 Y0.985 Z-1.3 I0.317 J0.011
G1 X11.771 Y0.989
X11.812 Y0.999
X11.968 Y1.047
X13.663 Y1.574
X13.9 Y1.647
X14.002 Y1.679 Z-1.343
G3 X14.225 Y1.971 Z-1.5 I-0.094 J0.303
G1 Y2.161
X14.218 Y2.311
X14.139 Y2.439
X14.04 Y2.552
X13.928 Y2.652
X13.806 Y2.739
X13.676 Y2.813
X13.54 Y2.876
X13.399 Y2.927
X13.254 Y2.966
X13.107 Y2.994
X12.958 Y3.01
X12.808 Y3.014
X12.658 Y3.005
X12.509 Y2.984
X12.364 Y2.945
X12.223 Y2.895
X12.087 Y2.831
X11.854 Y2.655
X11.662 Y2.436
X11.519 Y2.182
X11.43 Y1.905
X11.4 Y1.615
Y1.448
G3 X11.728 Y1.142 Z-1.3 I0.317 J0.011
G1 X11.773 Y1.147
X11.816 Y1.157
X11.967 Y1.207
X13.665 Y1.759
X13.901 Y1.836
X14.006 Y1.87 Z-1.344
G3 X14.225 Y2.161 Z-1.5 I-0.098 J0.302
G1 Y2.307
X14.218 Y2.457
X14.143 Y2.587
X14.047 Y2.702
X13.936 Y2.803
X13.814 Y2.891
X13.685 Y2.966
X13.549 Y3.03
X13.408 Y3.082
X13.264 Y3.122
X13.116 Y3.15
X12.967 Y3.166
X12.817 Y3.171
X12.667 Y3.163
X12.519 Y3.142
X12.373 Y3.109
X12.362 Y3.106
X12.096 Y2.983
X11.86 Y2.807
X11.666 Y2.588
X11.52 Y2.332
X11.431 Y2.053
X11.4 Y1.761
Y1.615
G3 X11.728 Y1.308 Z-1.3 I0.317 J0.011
G1 X11.771 Y1.313
X11.813 Y1.323
X11.968 Y1.372
X13.664 Y1.908
X13.901 Y1.983
X14.004 Y2.015 Z-1.343
G3 X14.225 Y2.307 Z-1.5 I-0.096 J0.303
G1 Y2.453
X14.218 Y2.603
X14.147 Y2.735
X14.053 Y2.852
X13.943 Y2.954
X13.822 Y3.043
X13.693 Y3.119
X13.557 Y3.184
X13.417 Y3.236
X13.272 Y3.277
X13.125 Y3.306
X12.976 Y3.323
X12.826 Y3.329
X12.677 Y3.322
X12.528 Y3.3
X12.382 Y3.265
X12.241 Y3.216
X12.231 Y3.211
X11.954 Y3.044
X11.721 Y2.818
X11.546 Y2.546
X11.437 Y2.241
X11.4 Y1.919
Y1.761
G3 X11.728 Y1.455 Z-1.3 I0.317 J0.011
G1 X11.771 Y1.459
X11.813 Y1.469
X11.968 Y1.518
X13.664 Y2.054
X13.901 Y2.129
X14.004 Y2.161 Z-1.343
G3 X14.225 Y2.453 Z-1.5 I-0.096 J0.303
G1 Y2.599
X14.218 Y2.749
X14.15 Y2.883
X14.058 Y3.001
X13.949 Y3.104
X13.829 Y3.194
X13.701 Y3.272
X13.565 Y3.337
X13.425 Y3.39
X13.281 Y3.431
X13.134 Y3.461
X12.985 Y3.48
X12.835 Y3.485
X12.685 Y3.479
X12.537 Y3.46
X12.391 Y3.424
X12.249 Y3.376
X12.112 Y3.315
X12.103 Y3.31
X11.865 Y3.135
X11.669 Y2.915
X11.522 Y2.659
X11.431 Y2.378
X11.4 Y2.084
Y1.919
G3 X11.728 Y1.612 Z-1.3 I0.317 J0.011
G1 X11.771 Y1.617
X11.812 Y1.627
X11.968 Y1.675
X13.663 Y2.202
X13.9 Y2.275
X14.002 Y2.307 Z-1.343
G3 X14.225 Y2.599 Z-1.5 I-0.094 J0.303
G1 Y2.776
X14.218 Y2.925
X14.144 Y3.056
X14.048 Y3.171
X13.937 Y3.272
X13.816 Y3.361
X13.686 Y3.437
X13.551 Y3.5
X13.41 Y3.552
X13.265 Y3.593
X13.118 Y3.621
X12.969 Y3.638
X12.819 Y3.642
X12.669 Y3.634
X12.521 Y3.613
X12.374 Y3.58
X12.355 Y3.574
X12.09 Y3.45
X11.856 Y3.275
X11.663 Y3.055
X11.519 Y2.801
X11.43 Y2.522
X11.4 Y2.232
Y2.084
G3 X11.728 Y1.778 Z-1.3 I0.317 J0.011
G1 X11.771 Y1.782
X11.813 Y1.792
X11.968 Y1.841
X13.664 Y2.377
X13.901 Y2.451
X14.004 Y2.484 Z-1.343
G3 X14.225 Y2.776 Z-1.5 I-0.096 J0.303
G1 Y2.922
X14.218 Y3.071
X14.147 Y3.204
X14.054 Y3.321
X13.944 Y3.423
X13.824 Y3.513
X13.695 Y3.589
X13.559 Y3.654
X13.419 Y3.706
X13.274 Y3.747
X13.127 Y3.776
X12.978 Y3.794
X12.828 Y3.799
X12.678 Y3.793
X12.53 Y3.771
X12.384 Y3.736
X12.242 Y3.687
X12.23 Y3.682
X11.953 Y3.514
X11.721 Y3.289
X11.546 Y3.016
X11.437 Y2.711
X11.4 Y2.39
Y2.232
G3 X11.728 Y1.925 Z-1.3 I0.317 J0.011
G1 X11.771 Y1.93
X11.813 Y1.94
X11.968 Y1.989
X13.664 Y2.523
X13.901 Y2.597
X14.003 Y2.63 Z-1.343
G3 X14.225 Y2.922 Z-1.5 I-0.095 J0.303
G1 Y3.073
X14.218 Y3.223
X14.149 Y3.356
X14.056 Y3.474
X13.947 Y3.577
X13.827 Y3.667
X13.699 Y3.744
X13.563 Y3.809
X13.423 Y3.862
X13.279 Y3.903
X13.132 Y3.933
X12.983 Y3.951
X12.833 Y3.956
X12.683 Y3.95
X12.534 Y3.93
X12.389 Y3.895
X12.247 Y3.846
X12.11 Y3.785
X12.102 Y3.78
X11.864 Y3.605
X11.668 Y3.385
X11.521 Y3.129
X11.431 Y2.848
X11.4 Y2.555
Y2.39
G3 X11.728 Y2.083 Z-1.3 I0.317 J0.011
G1 X11.771 Y2.088
X11.812 Y2.098
X11.968 Y2.146
X13.663 Y2.675
X13.901 Y2.749
X14.002 Y2.781 Z-1.343
G3 X14.225 Y3.073 Z-1.5 I-0.095 J0.303
G1 Y3.255
X14.218 Y3.405
X14.141 Y3.534
X14.044 Y3.648
X13.932 Y3.748
X13.811 Y3.836
X13.681 Y3.911
X13.545 Y3.974
X13.404 Y4.026
X13.259 Y4.065
X13.112 Y4.093
X12.963 Y4.109
X12.813 Y4.113
X12.663 Y4.104
X12.515 Y4.083
X12.368 Y4.05
X12.349 Y4.043
X12.086 Y3.918
X11.853 Y3.743
X11.661 Y3.524
X11.518 Y3.27
X11.43 Y2.992
X11.4 Y2.703
Y2.555
G3 X11.728 Y2.249 Z-1.3 I0.317 J0.011
G1 X11.772 Y2.253
X11.814 Y2.264
X11.967 Y2.313
X13.664 Y2.855
X13.901 Y2.93
X14.005 Y2.963 Z-1.344
G3 X14.225 Y3.255 Z-1.5 I-0.097 J0.302
G1 Y3.401
X14.218 Y3.551
X14.145 Y3.682
X14.05 Y3.798
X13.94 Y3.9
X13.819 Y3.988
X13.689 Y4.064
X13.554 Y4.128
X13.413 Y4.18
X13.268 Y4.22
X13.121 Y4.248
X12.972 Y4.265
X12.822 Y4.27
X12.672 Y4.264
X12.524 Y4.241
X12.378 Y4.206
X12.237 Y4.156
X12.226 Y4.151
X11.95 Y3.983
X11.719 Y3.758
X11.545 Y3.486
X11.437 Y3.182
X11.4 Y2.861
Y2.703
G3 X11.728 Y2.396 Z-1.3 I0.317 J0.011
G1 X11.772 Y2.401
X11.814 Y2.411
X11.968 Y2.46
X13.664 Y3.001
X13.901 Y3.076
X14.004 Y3.109 Z-1.344
G3 X14.225 Y3.401 Z-1.5 I-0.096 J0.303
G1 Y3.547
X14.218 Y3.696
X14.149 Y3.83
X14.055 Y3.947
X13.946 Y4.05
X13.826 Y4.14
X13.697 Y4.216
X13.562 Y4.281
X13.421 Y4.334
X13.277 Y4.375
X13.13 Y4.404
X12.981 Y4.422
X12.831 Y4.428
X12.681 Y4.421
X12.533 Y4.401
X12.387 Y4.365
X12.245 Y4.316
X12.108 Y4.256
X12.1 Y4.251
X11.863 Y4.076
X11.667 Y3.856
X11.521 Y3.6
X11.431 Y3.32
X11.4 Y3.027
Y2.861
G3 X11.728 Y2.555 Z-1.3 I0.317 J0.011
G1 X11.771 Y2.559
X11.812 Y2.569
X11.968 Y2.618
X13.664 Y3.149
X13.901 Y3.223
X14.003 Y3.255 Z-1.343
G3 X14.225 Y3.547 Z-1.5 I-0.095 J0.303
G1 Y3.722
X14.218 Y3.872
X14.143 Y4.002
X14.046 Y4.117
X13.935 Y4.217
X13.814 Y4.305
X13.684 Y4.381
X13.548 Y4.444
X13.407 Y4.496
X13.263 Y4.536
X13.115 Y4.564
X12.966 Y4.58
X12.816 Y4.584
X12.666 Y4.576
X12.518 Y4.555
X12.372 Y4.522
X12.353 Y4.516
X12.089 Y4.392
X11.855 Y4.216
X11.663 Y3.997
X11.519 Y3.743
X11.43 Y3.464
X11.4 Y3.174
Y3.027
G3 X11.728 Y2.72 Z-1.3 I0.317 J0.011
G1 X11.772 Y2.725
X11.814 Y2.735
X11.968 Y2.784
X13.664 Y3.323
X13.901 Y3.398
X14.004 Y3.431 Z-1.344
G3 X14.225 Y3.722 Z-1.5 I-0.096 J0.303
G1 Y3.868
X14.218 Y4.018
X14.146 Y4.15
X14.052 Y4.266
X13.942 Y4.368
X13.821 Y4.457
X13.692 Y4.534
X13.556 Y4.598
X13.416 Y4.65
X13.271 Y4.69
X13.124 Y4.719
X12.975 Y4.736
X12.825 Y4.742
X12.675 Y4.735
X12.527 Y4.713
X12.381 Y4.678
X12.24 Y4.629
X12.228 Y4.623
X11.952 Y4.456
X11.72 Y4.23
X11.546 Y3.958
X11.437 Y3.653
X11.4 Y3.332
Y3.174
G3 X11.728 Y2.868 Z-1.3 I0.317 J0.011
G1 X11.771 Y2.872
X11.813 Y2.882
X11.968 Y2.931
X13.664 Y3.469
X13.901 Y3.544
X14.004 Y3.576 Z-1.343
G3 X14.225 Y3.868 Z-1.5 I-0.096 J0.303
G1 Y4.014
X14.218 Y4.164
X14.15 Y4.297
X14.057 Y4.416
X13.949 Y4.519
X13.828 Y4.609
X13.7 Y4.686
X13.565 Y4.751
X13.424 Y4.804
X13.28 Y4.845
X13.133 Y4.875
X12.984 Y4.893
X12.834 Y4.899
X12.684 Y4.892
X12.536 Y4.873
X12.39 Y4.837
X12.248 Y4.789
X12.111 Y4.728
X12.102 Y4.723
X11.865 Y4.548
X11.668 Y4.328
X11.522 Y4.072
X11.431 Y3.791
X11.4 Y3.498
Y3.332
G3 X11.728 Y3.026 Z-1.3 I0.317 J0.011
G1 X11.771 Y3.03
X11.812 Y3.04
X11.968 Y3.089
X13.663 Y3.616
X13.9 Y3.69
X14.002 Y3.722 Z-1.343
G3 X14.225 Y4.014 Z-1.5 I-0.094 J0.303
G1 Y4.204
X14.218 Y4.354
X14.139 Y4.482
X14.041 Y4.595
X13.929 Y4.695
X13.807 Y4.782
X13.677 Y4.856
X13.54 Y4.919
X13.399 Y4.97
X13.254 Y5.009
X13.107 Y5.036
X12.958 Y5.052
X12.808 Y5.055
X12.658 Y5.046
X12.51 Y5.025
X12.363 Y4.991
X12.343 Y4.983
X12.081 Y4.858
X11.85 Y4.683
X11.66 Y4.464
X11.518 Y4.211
X11.43 Y3.934
X11.4 Y3.645
Y3.498
G3 X11.728 Y3.191 Z-1.3 I0.317 J0.011
G1 X11.772 Y3.196
X11.815 Y3.206
X11.967 Y3.256
X13.665 Y3.803
X13.901 Y3.879
X14.005 Y3.913 Z-1.344
G3 X14.225 Y4.204 Z-1.5 I-0.097 J0.302
G1 Y4.35
X14.218 Y4.5
X14.143 Y4.63
X14.047 Y4.745
X13.936 Y4.846
X13.815 Y4.934
X13.685 Y5.009
X13.549 Y5.073
X13.408 Y5.124
X13.264 Y5.164
X13.116 Y5.192
X12.967 Y5.208
X12.817 Y5.213
X12.667 Y5.206
X12.519 Y5.183
X12.374 Y5.147
X12.232 Y5.097
X12.222 Y5.092
X11.947 Y4.924
X11.717 Y4.699
X11.544 Y4.427
X11.437 Y4.124
X11.4 Y3.804
Y3.645
G3 X11.728 Y3.339 Z-1.3 I0.317 J0.011
G1 X11.772 Y3.344
X11.815 Y3.354
X11.967 Y3.403
X13.664 Y3.949
X13.901 Y4.025
X14.005 Y4.059 Z-1.344
G3 X14.225 Y4.35 Z-1.5 I-0.097 J0.302
G1 Y4.496
X14.218 Y4.646
X14.147 Y4.778
X14.053 Y4.895
X13.943 Y4.997
X13.822 Y5.086
X13.693 Y5.162
X13.557 Y5.226
X13.417 Y5.278
X13.272 Y5.319
X13.125 Y5.348
X12.976 Y5.365
X12.826 Y5.37
X12.676 Y5.363
X12.528 Y5.343
X12.382 Y5.307
X12.241 Y5.257
X12.104 Y5.196
X12.097 Y5.192
X11.861 Y5.017
X11.666 Y4.797
X11.52 Y4.542
X11.431 Y4.262
X11.4 Y3.97
Y3.804
G3 X11.728 Y3.498 Z-1.3 I0.317 J0.011
G1 X11.771 Y3.502
X11.813 Y3.512
X11.968 Y3.561
X13.664 Y4.097
X13.901 Y4.172
X14.004 Y4.204 Z-1.343
G3 X14.225 Y4.496 Z-1.5 I-0.096 J0.303
G1 Y4.642
X14.218 Y4.792
X14.15 Y4.925
X14.058 Y5.044
X13.949 Y5.147
X13.829 Y5.237
X13.701 Y5.314
X13.565 Y5.379
X13.425 Y5.432
X13.281 Y5.474
X13.134 Y5.503
X12.985 Y5.521
X12.835 Y5.527
X12.685 Y5.521
X12.536 Y5.502
X12.39 Y5.47
X12.244 Y5.421
X11.962 Y5.255
X11.726 Y5.029
X11.548 Y4.755
X11.438 Y4.448
X11.4 Y4.123
Y3.97
G3 X11.728 Y3.664 Z-1.3 I0.317 J0.011
G1 X11.77 Y3.668
X11.811 Y3.677
X11.968 Y3.726
X13.663 Y4.246
X13.9 Y4.318
X14.001 Y4.349 Z-1.342
G3 X14.225 Y4.642 Z-1.5 I-0.093 J0.304
G1 Y4.818
X14.218 Y4.968
X14.144 Y5.099
X14.048 Y5.214
X13.937 Y5.315
X13.816 Y5.403
X13.686 Y5.479
X13.55 Y5.543
X13.41 Y5.595
X13.265 Y5.635
X13.118 Y5.663
X12.969 Y5.68
X12.819 Y5.684
X12.669 Y5.677
X12.52 Y5.658
X12.375 Y5.621
X12.233 Y5.572
X12.095 Y5.509
X11.86 Y5.334
X11.665 Y5.114
X11.52 Y4.859
X11.431 Y4.58
X11.4 Y4.288
Y4.123
G3 X11.728 Y3.817 Z-1.3 I0.317 J0.011
G1 X11.771 Y3.821
X11.814 Y3.832
X11.968 Y3.881
X13.664 Y4.419
X13.901 Y4.494
X14.004 Y4.527 Z-1.343
G3 X14.225 Y4.818 Z-1.5 I-0.096 J0.303
G1 Y4.964
X14.218 Y5.114
X14.147 Y5.247
X14.053 Y5.364
X13.944 Y5.466
X13.823 Y5.555
X13.694 Y5.632
X13.559 Y5.696
X13.418 Y5.749
X13.274 Y5.789
X13.127 Y5.819
X12.978 Y5.836
X12.828 Y5.843
X12.678 Y5.836
X12.529 Y5.817
X12.383 Y5.785
X12.374 Y5.782
X12.105 Y5.66
X11.866 Y5.485
X11.669 Y5.265
X11.522 Y5.008
X11.431 Y4.727
X11.4 Y4.433
Y4.288
G3 X11.728 Y3.982 Z-1.3 I0.317 J0.011
G1 X11.77 Y3.986
X11.811 Y3.996
X11.968 Y4.044
X13.663 Y4.568
X13.9 Y4.641
X14.002 Y4.672 Z-1.342
G3 X14.225 Y4.964 Z-1.5 I-0.094 J0.303
G1 Y5.116
X14.218 Y5.265
X14.149 Y5.399
X14.056 Y5.516
X13.947 Y5.62
X13.827 Y5.709
X13.698 Y5.786
X13.563 Y5.851
X13.423 Y5.904
X13.278 Y5.945
X13.131 Y5.975
X12.983 Y5.993
X12.833 Y6
X12.683 Y5.995
X12.534 Y5.973
X12.388 Y5.939
X12.246 Y5.89
X12.238 Y5.886
X11.958 Y5.719
X11.724 Y5.493
X11.547 Y5.22
X11.438 Y4.913
X11.4 Y4.59
Y4.433
G3 X11.728 Y4.127 Z-1.3 I0.317 J0.011
G1 X11.771 Y4.131
X11.812 Y4.141
X11.968 Y4.19
X13.663 Y4.718
X13.9 Y4.792
X14.002 Y4.824 Z-1.343
G3 X14.225 Y5.116 Z-1.5 I-0.094 J0.303
G1 Y5.298
X14.218 Y5.447
X14.141 Y5.576
X14.044 Y5.69
X13.932 Y5.791
X13.81 Y5.878
X13.681 Y5.954
X13.545 Y6.017
X13.404 Y6.068
X13.259 Y6.108
X13.112 Y6.136
X12.963 Y6.152
X12.813 Y6.156
X12.663 Y6.148
X12.514 Y6.127
X12.369 Y6.089
X12.228 Y6.039
X12.089 Y5.974
X11.856 Y5.799
X11.663 Y5.58
X11.519 Y5.325
X11.43 Y5.047
X11.4 Y4.756
Y4.59
G3 X11.728 Y4.284 Z-1.3 I0.317 J0.011
G1 X11.772 Y4.289
X11.815 Y4.299
X11.967 Y4.348
X13.665 Y4.896
X13.901 Y4.973
X14.006 Y5.007 Z-1.344
G3 X14.225 Y5.298 Z-1.5 I-0.098 J0.302
G1 Y5.444
X14.218 Y5.593
X14.145 Y5.724
X14.05 Y5.84
X13.94 Y5.942
X13.818 Y6.031
X13.689 Y6.107
X13.553 Y6.17
X13.413 Y6.223
X13.268 Y6.263
X13.121 Y6.292
X12.972 Y6.309
X12.822 Y6.314
X12.672 Y6.306
X12.524 Y6.286
X12.377 Y6.253
X12.234 Y6.204
X11.956 Y6.037
X11.723 Y5.811
X11.547 Y5.538
X11.437 Y5.233
X11.4 Y4.91
Y4.756
G3 X11.728 Y4.45 Z-1.3 I0.317 J0.011
G1 X11.771 Y4.455
X11.813 Y4.465
X11.968 Y4.513
X13.664 Y5.045
X13.901 Y5.12
X14.003 Y5.152 Z-1.343
G3 X14.225 Y5.444 Z-1.5 I-0.095 J0.303
G1 Y5.589
X14.218 Y5.739
X14.148 Y5.872
X14.055 Y5.99
X13.946 Y6.093
X13.826 Y6.182
X13.697 Y6.259
X13.562 Y6.324
X13.421 Y6.377
X13.277 Y6.418
X13.13 Y6.447
X12.981 Y6.465
X12.831 Y6.471
X12.681 Y6.465
X12.532 Y6.447
X12.386 Y6.412
X12.244 Y6.363
X12.107 Y6.303
X12.102 Y6.3
X11.865 Y6.125
X11.668 Y5.905
X11.522 Y5.649
X11.431 Y5.368
X11.4 Y5.074
Y4.91
G3 X11.728 Y4.604 Z-1.3 I0.317 J0.011
G1 X11.77 Y4.608
X11.812 Y4.618
X11.968 Y4.666
X13.663 Y5.192
X13.9 Y5.266
X14.002 Y5.297 Z-1.343
G3 X14.225 Y5.589 Z-1.5 I-0.094 J0.303
G1 Y5.765
X14.218 Y5.915
X14.143 Y6.045
X14.046 Y6.159
X13.935 Y6.26
X13.814 Y6.348
X13.684 Y6.424
X13.548 Y6.487
X13.407 Y6.539
X13.263 Y6.578
X13.115 Y6.607
X12.966 Y6.624
X12.816 Y6.629
X12.666 Y6.621
X12.518 Y6.601
X12.371 Y6.568
X12.357 Y6.563
X12.091 Y6.439
X11.857 Y6.264
X11.664 Y6.045
X11.519 Y5.79
X11.43 Y5.511
X11.4 Y5.22
Y5.074
G3 X11.728 Y4.768 Z-1.3 I0.317 J0.011
G1 X11.771 Y4.773
X11.813 Y4.783
X11.968 Y4.831
X13.664 Y5.366
X13.901 Y5.441
X14.003 Y5.473 Z-1.343
G3 X14.225 Y5.765 Z-1.5 I-0.095 J0.303
G1 Y5.911
X14.218 Y6.061
X14.146 Y6.192
X14.052 Y6.309
X13.942 Y6.411
X13.821 Y6.5
X13.692 Y6.576
X13.557 Y6.641
X13.416 Y6.693
X13.272 Y6.734
X13.124 Y6.763
X12.975 Y6.78
X12.826 Y6.786
X12.676 Y6.781
X12.527 Y6.758
X12.381 Y6.724
X12.24 Y6.674
X12.23 Y6.67
X11.953 Y6.503
X11.721 Y6.277
X11.546 Y6.004
X11.437 Y5.7
X11.4 Y5.378
Y5.22
G3 X11.728 Y4.914 Z-1.3 I0.317 J0.011
G1 X11.771 Y4.918
X11.813 Y4.929
X11.968 Y4.977
X13.664 Y5.512
X13.901 Y5.587
X14.003 Y5.619 Z-1.343
G3 X14.225 Y5.911 Z-1.5 I-0.095 J0.303
G1 Y6.057
X14.218 Y6.207
X14.15 Y6.34
X14.057 Y6.458
X13.949 Y6.562
X13.828 Y6.652
X13.7 Y6.729
X13.565 Y6.794
X13.424 Y6.847
X13.28 Y6.889
X13.133 Y6.919
X12.985 Y6.937
X12.835 Y6.943
X12.685 Y6.937
X12.536 Y6.918
X12.39 Y6.883
X12.248 Y6.834
X12.111 Y6.774
X12.103 Y6.769
X11.865 Y6.594
X11.669 Y6.374
X11.522 Y6.118
X11.431 Y5.837
X11.4 Y5.543
Y5.378
G3 X11.728 Y5.072 Z-1.3 I0.317 J0.011
G1 X11.77 Y5.076
X11.812 Y5.086
X11.968 Y5.134
X13.663 Y5.66
X13.9 Y5.733
X14.002 Y5.765 Z-1.343
G3 X14.225 Y6.057 Z-1.5 I-0.094 J0.303
G1 Y6.247
X14.218 Y6.397
X14.139 Y6.524
X14.041 Y6.638
X13.929 Y6.738
X13.807 Y6.825
X13.677 Y6.899
X13.541 Y6.962
X13.4 Y7.013
X13.255 Y7.053
X13.107 Y7.08
X12.958 Y7.096
X12.808 Y7.1
X12.659 Y7.091
X12.51 Y7.07
X12.364 Y7.036
X12.344 Y7.029
X12.082 Y6.904
X11.851 Y6.729
X11.66 Y6.51
X11.518 Y6.256
X11.43 Y5.98
X11.4 Y5.691
Y5.543
G3 X11.728 Y5.237 Z-1.3 I0.317 J0.011
G1 X11.772 Y5.241
X11.815 Y5.252
X11.967 Y5.301
X13.664 Y5.846
X13.901 Y5.922
X14.005 Y5.956 Z-1.344
G3 X14.225 Y6.247 Z-1.5 I-0.097 J0.302
G1 Y6.393
X14.218 Y6.542
X14.143 Y6.673
X14.047 Y6.788
X13.937 Y6.889
X13.815 Y6.977
X13.686 Y7.053
X13.55 Y7.116
X13.409 Y7.168
X13.264 Y7.208
X13.117 Y7.236
X12.968 Y7.253
X12.818 Y7.258
X12.668 Y7.251
X12.52 Y7.228
X12.374 Y7.192
X12.233 Y7.142
X12.223 Y7.138
X11.948 Y6.97
X11.718 Y6.744
X11.544 Y6.473
X11.437 Y6.169
X11.4 Y5.849
Y5.691
G3 X11.728 Y5.384 Z-1.3 I0.317 J0.011
G1 X11.772 Y5.389
X11.814 Y5.399
X11.967 Y5.448
X13.664 Y5.992
X13.901 Y6.068
X14.005 Y6.101 Z-1.344
G3 X14.225 Y6.393 Z-1.5 I-0.097 J0.302
G1 Y6.539
X14.218 Y6.688
X14.147 Y6.821
X14.053 Y6.938
X13.943 Y7.04
X13.823 Y7.129
X13.694 Y7.205
X13.558 Y7.27
X13.417 Y7.322
X13.273 Y7.363
X13.126 Y7.392
X12.977 Y7.41
X12.827 Y7.415
X12.677 Y7.408
X12.529 Y7.388
X12.383 Y7.352
X12.241 Y7.303
X12.104 Y7.242
X12.097 Y7.237
X11.861 Y7.062
X11.666 Y6.842
X11.521 Y6.587
X11.431 Y6.307
X11.4 Y6.015
Y5.849
G3 X11.728 Y5.543 Z-1.3 I0.317 J0.011
G1 X11.771 Y5.547
X11.813 Y5.557
X11.968 Y5.606
X13.664 Y6.14
X13.901 Y6.214
X14.003 Y6.247 Z-1.343
G3 X14.225 Y6.539 Z-1.5 I-0.095 J0.303
G1 Y6.715
X14.218 Y6.865
X14.141 Y6.994
X14.043 Y7.108
X13.932 Y7.208
X13.81 Y7.295
X13.68 Y7.37
X13.544 Y7.433
X13.403 Y7.484
X13.258 Y7.524
X13.111 Y7.552
X12.961 Y7.568
X12.811 Y7.572
X12.662 Y7.563
X12.513 Y7.542
X12.367 Y7.508
X12.35 Y7.502
X12.086 Y7.378
X11.854 Y7.203
X11.662 Y6.983
X11.519 Y6.729
X11.43 Y6.452
X11.4 Y6.162
Y6.015
G3 X11.728 Y5.708 Z-1.3 I0.317 J0.011
G1 X11.772 Y5.713
X11.814 Y5.723
X11.967 Y5.772
X13.664 Y6.315
X13.901 Y6.391
X14.005 Y6.424 Z-1.344
G3 X14.225 Y6.715 Z-1.5 I-0.097 J0.302
G1 Y6.861
X14.218 Y7.011
X14.145 Y7.142
X14.049 Y7.258
X13.939 Y7.359
X13.818 Y7.448
X13.688 Y7.523
X13.552 Y7.587
X13.412 Y7.639
X13.267 Y7.679
X13.12 Y7.707
X12.971 Y7.724
X12.821 Y7.729
X12.671 Y7.723
X12.523 Y7.7
X12.377 Y7.664
X12.235 Y7.615
X12.225 Y7.61
X11.95 Y7.442
X11.719 Y7.217
X11.545 Y6.945
X11.437 Y6.641
X11.4 Y6.32
Y6.162
G3 X11.728 Y5.856 Z-1.3 I0.317 J0.011
G1 X11.772 Y5.86
X11.814 Y5.871
X11.968 Y5.919
X13.664 Y6.461
X13.901 Y6.537
X14.005 Y6.57 Z-1.344
G3 X14.225 Y6.861 Z-1.5 I-0.097 J0.302
G1 Y7.007
X14.218 Y7.157
X14.148 Y7.29
X14.055 Y7.407
X13.945 Y7.51
X13.825 Y7.599
X13.696 Y7.676
X13.561 Y7.74
X13.42 Y7.793
X13.276 Y7.834
X13.129 Y7.863
X12.98 Y7.881
X12.83 Y7.886
X12.68 Y7.879
X12.531 Y7.86
X12.386 Y7.824
X12.244 Y7.775
X12.107 Y7.714
X12.099 Y7.71
X11.863 Y7.535
X11.667 Y7.314
X11.521 Y7.059
X11.431 Y6.779
X11.4 Y6.486
Y6.32
G3 X11.728 Y6.014 Z-1.3 I0.317 J0.011
G1 X11.771 Y6.018
X11.813 Y6.028
X11.968 Y6.077
X13.664 Y6.609
X13.901 Y6.683
X14.003 Y6.715 Z-1.343
G3 X14.225 Y7.007 Z-1.5 I-0.095 J0.303
G1 Y7.158
X14.218 Y7.308
X14.15 Y7.442
X14.057 Y7.56
X13.948 Y7.663
X13.828 Y7.753
X13.7 Y7.83
X13.565 Y7.895
X13.424 Y7.948
X13.28 Y7.99
X13.133 Y8.019
X12.984 Y8.037
X12.834 Y8.043
X12.684 Y8.037
X12.536 Y8.017
X12.389 Y7.986
X12.244 Y7.937
X11.962 Y7.771
X11.726 Y7.545
X11.549 Y7.271
X11.438 Y6.964
X11.4 Y6.639
Y6.486
G3 X11.728 Y6.18 Z-1.3 I0.317 J0.011
G1 X11.77 Y6.184
X11.811 Y6.193
X11.968 Y6.242
X13.663 Y6.762
X13.9 Y6.835
X14.001 Y6.866 Z-1.342
G3 X14.225 Y7.158 Z-1.5 I-0.093 J0.304
G1 Y7.34
X14.218 Y7.49
X14.142 Y7.619
X14.045 Y7.734
X13.933 Y7.834
X13.812 Y7.922
X13.682 Y7.997
X13.546 Y8.061
X13.405 Y8.112
X13.26 Y8.152
X13.113 Y8.18
X12.964 Y8.196
X12.814 Y8.2
X12.664 Y8.193
X12.515 Y8.173
X12.37 Y8.136
X12.227 Y8.086
X11.951 Y7.918
X11.719 Y7.693
X11.545 Y7.421
X11.437 Y7.116
X11.4 Y6.795
Y6.639
G3 X11.728 Y6.333 Z-1.3 I0.317 J0.011
G1 X11.772 Y6.337
X11.814 Y6.348
X11.967 Y6.397
X13.664 Y6.94
X13.901 Y7.016
X14.005 Y7.049 Z-1.344
G3 X14.225 Y7.34 Z-1.5 I-0.097 J0.302
G1 Y7.486
X14.218 Y7.636
X14.146 Y7.768
X14.051 Y7.884
X13.941 Y7.986
X13.82 Y8.074
X13.69 Y8.15
X13.555 Y8.214
X13.414 Y8.266
X13.269 Y8.307
X13.122 Y8.335
X12.973 Y8.353
X12.823 Y8.359
X12.674 Y8.351
X12.525 Y8.332
X12.379 Y8.296
X12.237 Y8.247
X12.101 Y8.185
X12.096 Y8.182
X11.86 Y8.007
X11.666 Y7.787
X11.52 Y7.532
X11.431 Y7.253
X11.4 Y6.961
Y6.795
G3 X11.728 Y6.489 Z-1.3 I0.317 J0.011
G1 X11.771 Y6.493
X11.813 Y6.504
X11.968 Y6.552
X13.664 Y7.087
X13.901 Y7.162
X14.003 Y7.195 Z-1.343
G3 X14.225 Y7.486 Z-1.5 I-0.096 J0.303
G1 Y7.632
X14.218 Y7.782
X14.149 Y7.915
X14.056 Y8.033
X13.947 Y8.136
X13.827 Y8.226
X13.698 Y8.303
X13.563 Y8.367
X13.422 Y8.42
X13.278 Y8.462
X13.131 Y8.491
X12.982 Y8.51
X12.832 Y8.516
X12.683 Y8.51
X12.534 Y8.49
X12.387 Y8.459
X12.243 Y8.411
X11.962 Y8.245
X11.726 Y8.019
X11.548 Y7.745
X11.438 Y7.438
X11.4 Y7.113
Y6.961
G3 X11.728 Y6.654 Z-1.3 I0.317 J0.011
G1 X11.77 Y6.659
X11.811 Y6.668
X11.968 Y6.716
X13.663 Y7.236
X13.9 Y7.309
X14.001 Y7.34 Z-1.342
G3 X14.225 Y7.632 Z-1.5 I-0.093 J0.304
G1 Y7.808
X14.224 Y7.846
X14.159 Y8.154
X14.028 Y8.441
X13.837 Y8.691
X13.594 Y8.892
X13.313 Y9.035
X13.007 Y9.112
X12.692 Y9.119
X12.384 Y9.055
X12.097 Y8.925
X11.846 Y8.734
X11.643 Y8.493
X11.5 Y8.212
X11.422 Y7.907
G3 X11.705 Y7.559 Z-1.3 I0.316 J-0.032
G1 X11.733 Y7.557
X11.953 Y7.554
X13.661 Y7.529
X13.901 Y7.525
X13.909
G3 X14.224 Y7.846 Z-1.5 I-0.003 J0.317
G1 X14.222 Y7.877
X14.144 Y8.32
X14.137 Y8.359
X14.132 Y8.391
X14.102 Y8.498
X14.083 Y8.526
X14.055 Y8.544
X14.022 Y8.552
X13.989 Y8.547
X13.96 Y8.53
X13.939 Y8.503
X13.929 Y8.471
X13.932 Y8.437
X13.955 Y8.354
X13.97 Y8.324
X13.995 Y8.301
X14.027 Y8.289
X14.061 Y8.29
X14.092 Y8.303
X14.116 Y8.327
X14.13 Y8.357
X14.132 Y8.391
X14.115 Y8.464
X14.101 Y8.501
X14.023 Y8.629
X13.937 Y8.752
X13.837 Y8.864
X13.723 Y8.962
X13.601 Y9.048
X13.468 Y9.119
X13.331 Y9.178
X13.187 Y9.22
X13.04 Y9.251
X12.891 Y9.265
X12.741
X12.591 Y9.251
X12.444 Y9.221
X12.3 Y9.18
X12.162 Y9.122
X12.029 Y9.053
X11.999 Y9.033
X11.829 Y8.9
X11.682 Y8.742
X11.56 Y8.563
G3 X11.691 Y8.134 Z-1.3 I0.28 J-0.149
G1 X11.737 Y8.114
X11.786 Y8.101
X11.837 Y8.097
X11.933 Y8.096
X13.662 Y8.078
X13.798 Y8.077
X13.854 Y8.081
X13.909 Y8.095
G3 X14.101 Y8.501 Z-1.5 I-0.107 J0.299
G1 X14.065 Y8.566
X13.913 Y8.829
X13.89 Y8.865
X13.861 Y8.902
X13.773 Y8.979
X13.604 Y9.121
X13.57 Y9.149
X13.542 Y9.172
X13.481 Y9.203
X13.426 Y9.228
X13.37 Y9.251
G3 X12.967 Y9.054 Z-1.3 I-0.103 J-0.3
X13.19 Y8.643 I0.3 J-0.103
G1 X13.253 Y8.627
G3 X13.568 Y8.724 I0.078 J0.308
X13.542 Y9.172 Z-1.5 I-0.237 J0.211
G1 X13.481 Y9.209
X13.329 Y9.267
X13.218 Y9.307
X13.19 Y9.317
X13.149 Y9.332
X13.06 Y9.36
X13.027 Y9.359
X12.996 Y9.345
X12.972 Y9.322
X12.958 Y9.291
X12.957 Y9.257
X12.967 Y9.226
X12.989 Y9.2
X13.019 Y9.184
X13.088 Y9.162
X13.122 Y9.158
X13.156 Y9.167
X13.183 Y9.188
X13.201 Y9.218
X13.206 Y9.252
X13.198 Y9.285
X13.178 Y9.313
X13.149 Y9.332
X13.117 Y9.344
X13.08 Y9.356
X13.044 Y9.363
X12.898 Y9.367
X12.752
X12.672 Y9.366
X12.636
X12.606 Y9.365
X12.53 Y9.351
G3 X12.676 Y8.979 I0.073 J-0.186
X12.718 Y9.329 I-0.073 J0.186
G1 X12.683 Y9.348
X12.646 Y9.361
X12.606 Y9.365
X12.57 Y9.36
X12.533 Y9.352
X12.315 Y9.273
X12.169 Y9.22
X12.132 Y9.203
X12.096 Y9.18
X12.022 Y9.121
X11.79 Y8.926
X11.756 Y8.893
X11.731 Y8.86
X11.629 Y8.683
X11.545 Y8.537
X11.525 Y8.501
X11.51 Y8.464
X11.494 Y8.391
X11.469 Y8.245
X11.408 Y7.808
X11.4 Y7.662
Y7.113
G3 X11.974 Y6.937 I0.317 J0.011
G1 X12.015 Y6.994 Z-1.492
X12.055 Y7.048 Z-1.469
X12.091 Y7.096 Z-1.431
X12.12 Y7.137 Z-1.38
X12.143 Y7.167 Z-1.32
X12.157 Y7.186 Z-1.253
X12.161 Y7.193 Z-1.182
Z4

G28 G91 Z0
G90
G28 G91 X0 Y0
G90
M5
M30
