(Slot-6mm-DOC-1-SO-0.5-500mm-min)
(Machine)
(  vendor: Autodesk)
(  model: Sainsmart 3018pro)
(  description: 3018)
(T3 D=3.175 CR=0 - ZMIN=-1 - flat end mill)
G90 G94
G17
G21
(When using Fusion for Personal Use, the feedrate of rapid)
(moves is reduced to match the feedrate of cutting moves,)
(which can increase machining time. Unrestricted rapid moves)
(are available with a Fusion Subscription.)
G28 G91 Z0
G90

(Adaptive2)
T3
S5000 M3
G17 G90 G94
G54
G0 Z4
G0 X17.545 Y-2.41
G1 Z2.5 F750
Z-0.365
Z-0.682
X17.539 Y-2.405 Z-0.753
X17.52 Y-2.391 Z-0.82
X17.489 Y-2.369 Z-0.88
X17.449 Y-2.339 Z-0.931
X17.4 Y-2.303 Z-0.969
X17.346 Y-2.264 Z-0.992
X17.289 Y-2.222 Z-1
G3 X15.669 Y-1.572 I-2.08 J-2.838
G1 X15.523 Y-1.558
X15.377 Y-1.525
X15.231 Y-1.473
X15.151 Y-1.437
X15.011 Y-1.382
X14.869 Y-1.335
X14.724 Y-1.296
X14.549 Y-1.257
X14.318 Y-1.216
X13.997 Y-1.173
X13.504 Y-1.128
X12.863 Y-1.096
X12.221 Y-1.082
X11.579 Y-1.076
X11.425
X11.172 Y-1.101
X10.931 Y-1.179
X10.711 Y-1.306
X10.672 Y-1.33
G3 X10.586 Y-1.77 Z-0.8 I0.177 J-0.264
X10.84 Y-1.911 I0.264 J0.177
G1 X15.001 Y-2.039
G3 X15.296 Y-1.862 I0.01 J0.317
X15.151 Y-1.437 Z-1 I-0.285 J0.14
G1 X15.085 Y-1.407
X15.042 Y-1.385
X14.94 Y-1.321
X14.821 Y-1.239
X14.794 Y-1.216
X14.678 Y-1.12
X14.548 Y-1.045
X14.412 Y-0.983
X14.272 Y-0.929
X14.129 Y-0.883
X13.957 Y-0.836
X13.747 Y-0.787
X13.494 Y-0.74
X13.147 Y-0.691
X12.65 Y-0.641
X12.247 Y-0.618
X11.989 Y-0.614
X11.937 Y-0.615
X11.675 Y-0.649
X11.425 Y-0.735
X11.198 Y-0.869
X11.002 Y-1.046
G3 X11.041 Y-1.493 Z-0.8 I0.243 J-0.204
G1 X11.097 Y-1.531
X11.161 Y-1.556
X11.228 Y-1.567
X11.272 Y-1.57
X14.545 Y-1.751
G3 X14.781 Y-1.665 I0.018 J0.317
X14.794 Y-1.216 Z-1 I-0.218 J0.231
G1 X14.669 Y-1.093
X14.648 Y-1.071
X14.544 Y-0.947
X14.448 Y-0.832
X14.329 Y-0.74
X14.202 Y-0.661
X14.069 Y-0.591
X13.932 Y-0.531
X13.791 Y-0.478
X13.621 Y-0.422
X13.443 Y-0.372
X13.218 Y-0.318
X12.988 Y-0.274
X12.786 Y-0.243
X12.624 Y-0.226
X12.454 Y-0.215
X12.304 Y-0.211
X12.154 Y-0.217
X12.134 Y-0.218
X11.838 Y-0.281
X11.565 Y-0.413
X11.332 Y-0.606
X11.152 Y-0.849
G3 X11.287 Y-1.277 Z-0.8 I0.281 J-0.147
G1 X11.351 Y-1.302
X11.419 Y-1.313
X11.529 Y-1.318
X14.221 Y-1.44
X14.266 Y-1.442
X14.334 Y-1.438
X14.399 Y-1.419
X14.459 Y-1.388
G3 X14.544 Y-0.947 Z-1 I-0.178 J0.263
G1 X14.502 Y-0.89
X14.447 Y-0.801
X14.405 Y-0.721
X14.328 Y-0.592
X14.229 Y-0.479
X14.116 Y-0.381
X13.994 Y-0.294
X13.865 Y-0.217
X13.731 Y-0.149
X13.594 Y-0.088
X13.454 Y-0.035
X13.311 Y0.012
X13.167 Y0.053
X13.021 Y0.087
X12.874 Y0.115
X12.725 Y0.135
X12.575 Y0.146
X12.425 Y0.149
X12.276 Y0.142
X12.266 Y0.14
X12.004 Y0.077
X11.762 Y-0.04
X11.551 Y-0.207
X11.38 Y-0.415
X11.258 Y-0.655
X11.179 Y-0.801
X11.152 Y-0.849
G3 X11.287 Y-1.277 Z-0.8 I0.281 J-0.147
G1 X11.339 Y-1.299
X11.394 Y-1.311
X11.45 Y-1.313
X11.529 Y-1.309
X14.014 Y-1.182
X14.135 Y-1.176
X14.198 Y-1.167
X14.257 Y-1.145
G3 X14.405 Y-0.721 Z-1 I-0.138 J0.286
G1 X14.356 Y-0.629
X14.313 Y-0.509
X14.3 Y-0.465
X14.252 Y-0.323
X14.167 Y-0.2
X14.065 Y-0.09
X13.951 Y0.008
X13.83 Y0.096
X13.702 Y0.174
X13.569 Y0.243
X13.431 Y0.304
X13.291 Y0.356
X13.147 Y0.4
X13.002 Y0.436
X12.854 Y0.463
X12.705 Y0.479
X12.555 Y0.485
X12.405 Y0.479
X12.387 Y0.477
X12.102 Y0.406
X11.842 Y0.272
X11.619 Y0.08
X11.448 Y-0.158
X11.336 Y-0.429
G3 X11.569 Y-0.812 Z-0.8 I0.309 J-0.075
G1 X11.639 Y-0.821
X11.816 Y-0.824
X13.821 Y-0.856
X13.987 Y-0.859
X14.028 Y-0.857
X14.069 Y-0.85
G3 X14.3 Y-0.465 Z-1 I-0.077 J0.308
G1 X14.271 Y-0.363
X14.242 Y-0.218
X14.238 Y-0.173
X14.218 Y-0.025
X14.138 Y0.102
X14.042 Y0.217
X13.933 Y0.321
X13.816 Y0.414
X13.691 Y0.497
X13.56 Y0.57
X13.424 Y0.634
X13.284 Y0.688
X13.141 Y0.733
X12.995 Y0.768
X12.847 Y0.791
X12.697 Y0.802
X12.631
X12.342 Y0.77
X12.069 Y0.672
X11.825 Y0.516
X11.622 Y0.307
X11.473 Y0.059
X11.383 Y-0.218
X11.354 Y-0.363
X11.336 Y-0.429
G3 X11.569 Y-0.812 Z-0.8 I0.309 J-0.075
G1 X11.628 Y-0.821
X11.688 Y-0.819
X11.815 Y-0.801
X13.692 Y-0.542
X13.938 Y-0.508
X13.965 Y-0.504 Z-0.811
G3 X14.238 Y-0.173 Z-1 I-0.043 J0.315
G1 X14.229 Y-0.072
X14.226 Y0.045
X14.215 Y0.194
X14.157 Y0.333
X14.076 Y0.459
X13.979 Y0.573
X13.87 Y0.676
X13.751 Y0.768
X13.626 Y0.85
X13.493 Y0.921
X13.356 Y0.981
X13.214 Y1.031
X13.069 Y1.068
X12.921 Y1.094
X12.772 Y1.108
X12.684
X12.412 Y1.08
X12.152 Y0.994
X11.916 Y0.856
X11.714 Y0.671
X11.556 Y0.448
X11.448 Y0.197
X11.396 Y-0.072
X11.383 Y-0.218
G3 X11.684 Y-0.551 Z-0.8 I0.317 J-0.016
G1 X11.741 Y-0.549
X11.93 Y-0.525
X13.66 Y-0.304
X13.907 Y-0.273
X13.949 Y-0.267 Z-0.817
G3 X14.226 Y0.045 Z-1 I-0.04 J0.315
G1 Y0.074
X14.225 Y0.3
X14.218 Y0.45
X14.172 Y0.593
X14.1 Y0.725
X14.01 Y0.845
X13.906 Y0.953
X13.792 Y1.051
X13.669 Y1.137
X13.539 Y1.211
X13.403 Y1.275
X13.263 Y1.327
X13.118 Y1.366
X12.971 Y1.394
X12.821 Y1.409
X12.671 Y1.411
X12.522 Y1.4
X12.374 Y1.374
X12.229 Y1.337
X12.219 Y1.334
X11.949 Y1.194
X11.72 Y0.994
X11.546 Y0.744
X11.437 Y0.46
X11.4 Y0.159
Y0.074
X11.396 Y-0.072
G3 X11.716 Y-0.386 Z-0.8 I0.317 J0.003
G1 X11.768 Y-0.382
X11.961 Y-0.348
X13.654 Y-0.055
X13.898 Y-0.013
X13.962 Y-0.002 Z-0.826
G3 X14.225 Y0.3 Z-1 I-0.054 J0.313
G1 Y0.628
X14.218 Y0.778
X14.167 Y0.919
X14.093 Y1.05
X14.002 Y1.169
X13.897 Y1.276
X13.782 Y1.372
X13.658 Y1.456
X13.527 Y1.529
X13.39 Y1.59
X13.248 Y1.64
X13.103 Y1.677
X12.955 Y1.703
X12.806 Y1.717
X12.656 Y1.719
X12.506 Y1.706
X12.358 Y1.681
X12.212 Y1.643
X11.944 Y1.502
X11.717 Y1.302
X11.545 Y1.053
X11.437 Y0.77
X11.4 Y0.47
Y0.159
G3 X11.728 Y-0.148 Z-0.8 I0.317 J0.011
G1 X11.784 Y-0.141
X11.971 Y-0.101
X13.656 Y0.261
X13.898 Y0.313
X13.975 Y0.329 Z-0.831
G3 X14.225 Y0.628 Z-1 I-0.067 J0.31
G1 Y0.92
X14.218 Y1.07
X14.173 Y1.213
X14.102 Y1.345
X14.013 Y1.466
X13.91 Y1.575
X13.795 Y1.672
X13.672 Y1.757
X13.541 Y1.831
X13.404 Y1.893
X13.263 Y1.943
X13.118 Y1.982
X12.971 Y2.009
X12.822 Y2.025
X12.672 Y2.029
X12.522 Y2.018
X12.374 Y1.994
X12.224 Y1.957
X11.952 Y1.818
X11.722 Y1.617
X11.547 Y1.367
X11.437 Y1.082
X11.4 Y0.779
Y0.47
G3 X11.728 Y0.163 Z-0.8 I0.317 J0.011
G1 X11.782 Y0.17
X11.972 Y0.209
X13.655 Y0.555
X13.898 Y0.605
X13.972 Y0.62 Z-0.83
G3 X14.225 Y0.92 Z-1 I-0.064 J0.311
G1 Y1.242
X14.218 Y1.391
X14.17 Y1.534
X14.097 Y1.665
X14.006 Y1.784
X13.902 Y1.892
X13.787 Y1.988
X13.662 Y2.072
X13.531 Y2.144
X13.394 Y2.206
X13.253 Y2.256
X13.108 Y2.294
X12.96 Y2.32
X12.811 Y2.335
X12.661 Y2.338
X12.511 Y2.326
X12.363 Y2.302
X12.217 Y2.264
X11.947 Y2.124
X11.719 Y1.924
X11.545 Y1.674
X11.437 Y1.39
X11.4 Y1.089
Y0.779
G3 X11.728 Y0.472 Z-0.8 I0.317 J0.011
G1 X11.783 Y0.479
X11.972 Y0.519
X13.655 Y0.875
X13.898 Y0.926
X13.974 Y0.942 Z-0.831
G3 X14.225 Y1.242 Z-1 I-0.066 J0.311
G1 Y1.533
X14.218 Y1.683
X14.175 Y1.827
X14.105 Y1.96
X14.016 Y2.08
X13.913 Y2.189
X13.799 Y2.287
X13.675 Y2.372
X13.545 Y2.446
X13.409 Y2.509
X13.268 Y2.56
X13.123 Y2.599
X12.975 Y2.627
X12.826 Y2.643
X12.676 Y2.648
X12.527 Y2.638
X12.378 Y2.614
X12.233 Y2.579
X12.228 Y2.577
X11.955 Y2.439
X11.723 Y2.238
X11.548 Y1.987
X11.438 Y1.702
X11.4 Y1.398
Y1.089
G3 X11.728 Y0.782 Z-0.8 I0.317 J0.011
G1 X11.781 Y0.789
X11.972 Y0.828
X13.655 Y1.169
X13.898 Y1.219
X13.971 Y1.233 Z-0.83
G3 X14.225 Y1.533 Z-1 I-0.063 J0.311
G1 Y1.869
X14.218 Y2.019
X14.167 Y2.16
X14.093 Y2.291
X14.001 Y2.409
X13.896 Y2.516
X13.78 Y2.611
X13.655 Y2.695
X13.523 Y2.767
X13.386 Y2.827
X13.245 Y2.877
X13.099 Y2.914
X12.952 Y2.94
X12.802 Y2.954
X12.652 Y2.957
X12.503 Y2.944
X12.355 Y2.919
X12.334 Y2.914
X12.078 Y2.815
X11.85 Y2.664
X11.661 Y2.466
X11.518 Y2.232
X11.43 Y1.973
X11.4 Y1.701
Y1.398
G3 X11.728 Y1.091 Z-0.8 I0.317 J0.011
G1 X11.784 Y1.098
X11.972 Y1.139
X13.656 Y1.501
X13.898 Y1.554
X13.975 Y1.57 Z-0.831
G3 X14.225 Y1.869 Z-1 I-0.067 J0.31
G1 Y2.161
X14.218 Y2.311
X14.172 Y2.454
X14.101 Y2.586
X14.011 Y2.706
X13.907 Y2.814
X13.792 Y2.911
X13.668 Y2.995
X13.538 Y3.069
X13.401 Y3.131
X13.26 Y3.181
X13.115 Y3.22
X12.967 Y3.247
X12.818 Y3.263
X12.668 Y3.264
X12.518 Y3.253
X12.37 Y3.229
X12.338 Y3.22
X12.081 Y3.122
X11.852 Y2.971
X11.662 Y2.774
X11.519 Y2.539
X11.43 Y2.28
X11.4 Y2.007
Y1.701
G3 X11.728 Y1.395 Z-0.8 I0.317 J0.011
G1 X11.783 Y1.401
X11.972 Y1.441
X13.655 Y1.795
X13.898 Y1.846
X13.973 Y1.862 Z-0.831
G3 X14.225 Y2.161 Z-1 I-0.065 J0.311
G1 Y2.484
X14.218 Y2.634
X14.168 Y2.775
X14.095 Y2.906
X14.003 Y3.025
X13.899 Y3.132
X13.783 Y3.228
X13.658 Y3.311
X13.527 Y3.384
X13.39 Y3.445
X13.248 Y3.494
X13.103 Y3.531
X12.955 Y3.557
X12.806 Y3.571
X12.656
X12.506 Y3.559
X12.359 Y3.533
X12.33 Y3.525
X12.075 Y3.426
X11.848 Y3.275
X11.659 Y3.077
X11.518 Y2.844
X11.43 Y2.585
X11.4 Y2.314
Y2.007
G3 X11.728 Y1.701 Z-0.8 I0.317 J0.011
G1 X11.785 Y1.708
X11.972 Y1.748
X13.656 Y2.115
X13.898 Y2.168
X13.976 Y2.185 Z-0.832
G3 X14.225 Y2.484 Z-1 I-0.068 J0.31
G1 Y2.781
X14.218 Y2.931
X14.172 Y3.074
X14.1 Y3.205
X14.01 Y3.325
X13.906 Y3.434
X13.791 Y3.53
X13.667 Y3.615
X13.536 Y3.688
X13.4 Y3.749
X13.258 Y3.799
X13.113 Y3.837
X12.965 Y3.863
X12.816 Y3.878
X12.666 Y3.879
X12.517 Y3.868
X12.369 Y3.843
X12.334 Y3.834
X12.079 Y3.735
X11.851 Y3.584
X11.661 Y3.386
X11.518 Y3.152
X11.43 Y2.893
X11.4 Y2.621
Y2.314
G3 X11.728 Y2.008 Z-0.8 I0.317 J0.011
G1 X11.784 Y2.014
X11.972 Y2.054
X13.655 Y2.414
X13.898 Y2.465
X13.974 Y2.482 Z-0.831
G3 X14.225 Y2.781 Z-1 I-0.066 J0.311
G1 Y3.109
X14.218 Y3.259
X14.167 Y3.4
X14.092 Y3.53
X14 Y3.648
X13.894 Y3.755
X13.778 Y3.85
X13.653 Y3.933
X13.521 Y4.004
X13.384 Y4.064
X13.242 Y4.112
X13.096 Y4.149
X12.948 Y4.174
X12.799 Y4.187
X12.649 Y4.186
X12.5 Y4.173
X12.352 Y4.146
X12.324 Y4.139
X12.071 Y4.039
X11.845 Y3.887
X11.658 Y3.69
X11.517 Y3.457
X11.43 Y3.199
X11.4 Y2.929
Y2.621
G3 X11.728 Y2.315 Z-0.8 I0.317 J0.011
G1 X11.787 Y2.322
X11.972 Y2.363
X13.656 Y2.739
X13.898 Y2.793
X13.977 Y2.81 Z-0.832
G3 X14.225 Y3.109 Z-1 I-0.069 J0.31
G1 Y3.401
X14.218 Y3.551
X14.172 Y3.693
X14.1 Y3.825
X14.009 Y3.945
X13.905 Y4.052
X13.79 Y4.149
X13.666 Y4.233
X13.535 Y4.305
X13.398 Y4.367
X13.256 Y4.416
X13.111 Y4.453
X12.963 Y4.479
X12.814 Y4.494
X12.664
X12.514 Y4.483
X12.366 Y4.457
X12.332 Y4.448
X12.077 Y4.349
X11.849 Y4.198
X11.66 Y4
X11.518 Y3.767
X11.43 Y3.508
X11.4 Y3.236
Y2.929
G3 X11.728 Y2.622 Z-0.8 I0.317 J0.011
G1 X11.784 Y2.629
X11.972 Y2.67
X13.656 Y3.033
X13.898 Y3.085
X13.975 Y3.101 Z-0.831
G3 X14.225 Y3.401 Z-1 I-0.067 J0.31
G1 Y3.722
X14.218 Y3.872
X14.168 Y4.013
X14.094 Y4.144
X14.002 Y4.263
X13.897 Y4.369
X13.781 Y4.464
X13.656 Y4.547
X13.524 Y4.619
X13.386 Y4.679
X13.244 Y4.727
X13.099 Y4.764
X12.951 Y4.789
X12.802 Y4.802
X12.652 Y4.801
X12.502 Y4.789
X12.355 Y4.762
X12.325 Y4.754
X12.072 Y4.655
X11.846 Y4.503
X11.658 Y4.306
X11.517 Y4.073
X11.43 Y3.815
X11.4 Y3.544
Y3.236
G3 X11.728 Y2.93 Z-0.8 I0.317 J0.011
G1 X11.786 Y2.937
X11.972 Y2.978
X13.656 Y3.352
X13.898 Y3.406
X13.977 Y3.423 Z-0.832
G3 X14.225 Y3.722 Z-1 I-0.069 J0.31
G1 Y4.014
X14.218 Y4.164
X14.173 Y4.307
X14.101 Y4.439
X14.011 Y4.559
X13.907 Y4.667
X13.792 Y4.763
X13.668 Y4.847
X13.537 Y4.92
X13.4 Y4.981
X13.258 Y5.031
X13.113 Y5.069
X12.965 Y5.095
X12.816 Y5.109
X12.666 Y5.11
X12.516 Y5.098
X12.369 Y5.073
X12.333 Y5.064
X12.078 Y4.965
X11.85 Y4.814
X11.66 Y4.617
X11.518 Y4.383
X11.43 Y4.124
X11.4 Y3.852
Y3.544
G3 X11.728 Y3.238 Z-0.8 I0.317 J0.011
G1 X11.784 Y3.245
X11.972 Y3.285
X13.656 Y3.646
X13.898 Y3.698
X13.975 Y3.715 Z-0.831
G3 X14.225 Y4.014 Z-1 I-0.067 J0.31
G1 Y4.35
X14.218 Y4.5
X14.165 Y4.64
X14.089 Y4.77
X13.996 Y4.887
X13.89 Y4.993
X13.773 Y5.087
X13.647 Y5.169
X13.515 Y5.239
X13.377 Y5.299
X13.235 Y5.346
X13.089 Y5.382
X12.941 Y5.406
X12.791 Y5.419
X12.641 Y5.417
X12.492 Y5.403
X12.345 Y5.376
X12.319 Y5.368
X12.067 Y5.268
X11.843 Y5.116
X11.656 Y4.919
X11.516 Y4.687
X11.43 Y4.43
X11.4 Y4.16
Y3.852
G3 X11.728 Y3.545 Z-0.8 I0.317 J0.011
G1 X11.788 Y3.553
X11.971 Y3.595
X13.656 Y3.978
X13.899 Y4.033
X13.978 Y4.051 Z-0.833
G3 X14.225 Y4.35 Z-1 I-0.07 J0.31
G1 Y4.642
X14.218 Y4.792
X14.17 Y4.934
X14.096 Y5.064
X14.005 Y5.183
X13.9 Y5.29
X13.784 Y5.386
X13.659 Y5.469
X13.528 Y5.541
X13.39 Y5.601
X13.248 Y5.65
X13.103 Y5.687
X12.955 Y5.712
X12.806 Y5.726
X12.656 Y5.725
X12.506 Y5.713
X12.359 Y5.687
X12.326 Y5.678
X12.073 Y5.579
X11.846 Y5.427
X11.658 Y5.23
X11.517 Y4.997
X11.43 Y4.739
X11.4 Y4.468
Y4.16
G3 X11.728 Y3.854 Z-0.8 I0.317 J0.011
G1 X11.786 Y3.861
X11.972 Y3.902
X13.656 Y4.272
X13.898 Y4.326
X13.976 Y4.343 Z-0.832
G3 X14.225 Y4.642 Z-1 I-0.068 J0.31
G1 Y4.934
X14.218 Y5.083
X14.174 Y5.227
X14.103 Y5.359
X14.013 Y5.479
X13.91 Y5.588
X13.795 Y5.684
X13.671 Y5.769
X13.54 Y5.842
X13.403 Y5.904
X13.262 Y5.953
X13.117 Y5.991
X12.969 Y6.018
X12.82 Y6.033
X12.67
X12.52 Y6.022
X12.372 Y5.998
X12.336 Y5.988
X12.08 Y5.89
X11.851 Y5.739
X11.661 Y5.541
X11.519 Y5.307
X11.43 Y5.048
X11.4 Y4.775
Y4.468
G3 X11.728 Y4.162 Z-0.8 I0.317 J0.011
G1 X11.784 Y4.168
X11.972 Y4.208
X13.655 Y4.566
X13.898 Y4.618
X13.974 Y4.634 Z-0.831
G3 X14.225 Y4.934 Z-1 I-0.066 J0.311
G1 Y5.256
X14.218 Y5.406
X14.169 Y5.548
X14.096 Y5.679
X14.005 Y5.798
X13.9 Y5.905
X13.784 Y6.001
X13.66 Y6.084
X13.528 Y6.156
X13.391 Y6.216
X13.249 Y6.265
X13.104 Y6.302
X12.956 Y6.328
X12.806 Y6.341
X12.656
X12.507 Y6.329
X12.359 Y6.302
X12.329 Y6.294
X12.074 Y6.195
X11.848 Y6.043
X11.659 Y5.846
X11.518 Y5.613
X11.43 Y5.354
X11.4 Y5.083
Y4.775
G3 X11.728 Y4.469 Z-0.8 I0.317 J0.011
G1 X11.786 Y4.476
X11.972 Y4.517
X13.656 Y4.887
X13.898 Y4.94
X13.976 Y4.957 Z-0.832
G3 X14.225 Y5.256 Z-1 I-0.068 J0.31
G1 Y5.553
X14.218 Y5.703
X14.172 Y5.846
X14.101 Y5.978
X14.011 Y6.098
X13.907 Y6.206
X13.792 Y6.302
X13.668 Y6.387
X13.537 Y6.459
X13.4 Y6.521
X13.258 Y6.57
X13.113 Y6.608
X12.965 Y6.634
X12.816 Y6.648
X12.666 Y6.649
X12.516 Y6.637
X12.368 Y6.612
X12.333 Y6.603
X12.078 Y6.504
X11.85 Y6.353
X11.661 Y6.156
X11.518 Y5.922
X11.43 Y5.663
X11.4 Y5.391
Y5.083
G3 X11.728 Y4.777 Z-0.8 I0.317 J0.011
G1 X11.784 Y4.784
X11.972 Y4.824
X13.656 Y5.185
X13.898 Y5.238
X13.975 Y5.254 Z-0.831
G3 X14.225 Y5.553 Z-1 I-0.067 J0.31
G1 Y5.881
X14.218 Y6.031
X14.167 Y6.172
X14.092 Y6.302
X14 Y6.421
X13.894 Y6.527
X13.778 Y6.621
X13.653 Y6.704
X13.521 Y6.775
X13.383 Y6.835
X13.241 Y6.883
X13.096 Y6.92
X12.948 Y6.944
X12.798 Y6.957
X12.648 Y6.956
X12.499 Y6.943
X12.351 Y6.916
X12.323 Y6.908
X12.07 Y6.809
X11.845 Y6.657
X11.657 Y6.46
X11.517 Y6.227
X11.43 Y5.969
X11.4 Y5.699
Y5.391
G3 X11.728 Y5.084 Z-0.8 I0.317 J0.011
G1 X11.787 Y5.092
X11.972 Y5.133
X13.656 Y5.511
X13.899 Y5.565
X13.977 Y5.582 Z-0.832
G3 X14.225 Y5.881 Z-1 I-0.069 J0.31
G1 Y6.173
X14.218 Y6.323
X14.172 Y6.466
X14.099 Y6.597
X14.009 Y6.717
X13.904 Y6.824
X13.789 Y6.92
X13.665 Y7.004
X13.534 Y7.077
X13.396 Y7.138
X13.255 Y7.187
X13.109 Y7.224
X12.962 Y7.25
X12.812 Y7.264
X12.662
X12.513 Y7.253
X12.365 Y7.227
X12.331 Y7.218
X12.076 Y7.119
X11.849 Y6.968
X11.66 Y6.77
X11.518 Y6.537
X11.43 Y6.278
X11.4 Y6.006
Y5.699
G3 X11.728 Y5.393 Z-0.8 I0.317 J0.011
G1 X11.785 Y5.4
X11.972 Y5.44
X13.656 Y5.805
X13.898 Y5.857
X13.975 Y5.874 Z-0.832
G3 X14.225 Y6.173 Z-1 I-0.067 J0.31
G1 Y6.494
X14.218 Y6.644
X14.168 Y6.786
X14.093 Y6.916
X14.001 Y7.035
X13.896 Y7.141
X13.78 Y7.236
X13.655 Y7.319
X13.523 Y7.39
X13.385 Y7.45
X13.243 Y7.498
X13.098 Y7.535
X12.95 Y7.56
X12.8 Y7.573
X12.65 Y7.572
X12.501 Y7.559
X12.353 Y7.532
X12.324 Y7.524
X12.071 Y7.425
X11.845 Y7.273
X11.658 Y7.076
X11.517 Y6.843
X11.43 Y6.585
X11.4 Y6.314
Y6.006
G3 X11.728 Y5.7 Z-0.8 I0.317 J0.011
G1 X11.787 Y5.708
X11.972 Y5.749
X13.656 Y6.124
X13.898 Y6.178
X13.977 Y6.196 Z-0.832
G3 X14.225 Y6.494 Z-1 I-0.069 J0.31
G1 Y6.786
X14.218 Y6.936
X14.172 Y7.079
X14.1 Y7.211
X14.01 Y7.331
X13.906 Y7.438
X13.791 Y7.535
X13.667 Y7.619
X13.536 Y7.691
X13.399 Y7.753
X13.257 Y7.802
X13.112 Y7.839
X12.964 Y7.865
X12.815 Y7.88
X12.665
X12.515 Y7.869
X12.367 Y7.843
X12.332 Y7.834
X12.077 Y7.735
X11.849 Y7.584
X11.66 Y7.387
X11.518 Y7.153
X11.43 Y6.894
X11.4 Y6.622
Y6.314
G3 X11.728 Y6.008 Z-0.8 I0.317 J0.011
G1 X11.784 Y6.015
X11.972 Y6.056
X13.656 Y6.418
X13.898 Y6.47
X13.975 Y6.487 Z-0.831
G3 X14.225 Y6.786 Z-1 I-0.067 J0.31
G1 Y7.122
X14.218 Y7.272
X14.165 Y7.412
X14.089 Y7.542
X13.995 Y7.659
X13.889 Y7.765
X13.771 Y7.858
X13.646 Y7.94
X13.513 Y8.011
X13.376 Y8.07
X13.233 Y8.117
X13.088 Y8.153
X12.94 Y8.177
X12.79 Y8.189
X12.64 Y8.187
X12.491 Y8.174
X12.343 Y8.146
X12.318 Y8.139
X12.066 Y8.038
X11.842 Y7.886
X11.656 Y7.689
X11.516 Y7.457
X11.43 Y7.2
X11.4 Y6.93
Y6.622
G3 X11.728 Y6.316 Z-0.8 I0.317 J0.011
G1 X11.788 Y6.324
X11.971 Y6.365
X13.657 Y6.75
X13.899 Y6.805
X13.979 Y6.824 Z-0.833
G3 X14.225 Y7.122 Z-1 I-0.071 J0.31
G1 Y7.414
X14.218 Y7.564
X14.169 Y7.706
X14.096 Y7.836
X14.004 Y7.955
X13.899 Y8.062
X13.783 Y8.157
X13.658 Y8.241
X13.526 Y8.312
X13.389 Y8.373
X13.247 Y8.421
X13.102 Y8.458
X12.954 Y8.483
X12.804 Y8.496
X12.654
X12.505 Y8.483
X12.357 Y8.457
X12.325 Y8.449
X12.072 Y8.349
X11.846 Y8.197
X11.658 Y8
X11.517 Y7.767
X11.43 Y7.509
X11.4 Y7.238
Y6.93
G3 X11.728 Y6.624 Z-0.8 I0.317 J0.011
G1 X11.786 Y6.632
X11.972 Y6.672
X13.656 Y7.044
X13.898 Y7.098
X13.976 Y7.115 Z-0.832
G3 X14.225 Y7.414 Z-1 I-0.068 J0.31
G1 Y7.706
X14.218 Y7.856
X14.173 Y7.999
X14.102 Y8.131
X14.012 Y8.251
X13.909 Y8.36
X13.794 Y8.456
X13.67 Y8.54
X13.539 Y8.613
X13.402 Y8.675
X13.26 Y8.724
X13.115 Y8.762
X12.968 Y8.789
X12.818 Y8.803
X12.668 Y8.804
X12.519 Y8.793
X12.371 Y8.768
X12.334 Y8.759
X12.079 Y8.66
X11.851 Y8.509
X11.661 Y8.311
X11.518 Y8.077
X11.43 Y7.818
X11.4 Y7.546
Y7.238
G3 X11.728 Y6.932 Z-0.8 I0.317 J0.011
G1 X11.784 Y6.939
X11.972 Y6.979
X13.656 Y7.338
X13.898 Y7.39
X13.974 Y7.406 Z-0.831
G3 X14.225 Y7.706 Z-1 I-0.066 J0.311
G1 Y7.808
X14.222 Y7.877
X14.175 Y8.144
X14.142 Y8.29
X14.08 Y8.426
X13.995 Y8.55
X13.894 Y8.661
X13.78 Y8.759
X13.657 Y8.845
X13.527 Y8.919
X13.39 Y8.981
X13.249 Y9.031
X13.104 Y9.069
X12.956 Y9.095
X12.807 Y9.109
X12.657
X12.507 Y9.098
X12.357 Y9.071
X12.085 Y8.963
X11.845 Y8.794
X11.651 Y8.574
X11.513 Y8.315
X11.439 Y8.031
G3 X11.722 Y7.683 Z-0.8 I0.316 J-0.032
G1 X11.77 Y7.682
X11.97 Y7.691
X13.658 Y7.772
X13.876 Y7.782
X13.905 Y7.785
G3 X14.175 Y8.144 Z-1 I-0.044 J0.314
G1 X14.132 Y8.391
X14.115 Y8.464
X14.101 Y8.501
X14.065 Y8.566
X13.954 Y8.757
X13.935 Y8.791
X13.919 Y8.818
X13.88 Y8.878
G3 X13.463 Y8.937 Z-0.815 I-0.243 J-0.211
G1 X13.432 Y8.914 Z-0.8
G3 X13.79 Y8.388 I0.205 J-0.246
X13.919 Y8.818 Z-1 I-0.154 J0.281
G1 X13.89 Y8.865
X13.861 Y8.902
X13.773 Y8.979
X13.693 Y9.046
X13.657 Y9.076
X13.537 Y9.167
X13.5 Y9.188
X13.447 Y9.216
X13.392 Y9.241
X13.337 Y9.264
G3 X12.933 Y9.067 Z-0.8 I-0.103 J-0.3
X13.073 Y8.69 I0.3 J-0.103
G1 X13.284 Y8.566
G3 X13.68 Y8.628 I0.16 J0.274
X13.657 Y9.076 Z-1 I-0.236 J0.212
G1 X13.542 Y9.172
X13.481 Y9.209
X13.329 Y9.267
X13.252 Y9.295
X13.218 Y9.307
X13.19 Y9.317
X13.046 Y9.362
X13.032 Y9.363
G3 X12.717 Y9.044 Z-0.8 I0.002 J-0.317
X12.923 Y8.748 I0.317 J0.002
X13.07 Y9.141 I0.074 J0.196
X12.998 Y9.155 I-0.074 J-0.196
G1 X12.997
G3 X12.853 Y8.792 I0 J-0.21
X13.365 Y8.904 I0.218 J0.231
X13.19 Y9.317 Z-1 I-0.294 J0.119
G1 X13.117 Y9.344
X13.08 Y9.356
X13.044 Y9.363
X12.898 Y9.367
X12.752
X12.606 Y9.365
X12.57 Y9.36
X12.533 Y9.352
X12.315 Y9.273
X12.169 Y9.22
X12.132 Y9.203
X12.096 Y9.18
X12.022 Y9.121
X11.79 Y8.926
X11.756 Y8.893
X11.731 Y8.86
X11.629 Y8.683
X11.545 Y8.537
X11.525 Y8.501
X11.51 Y8.464
X11.494 Y8.391
X11.469 Y8.245
X11.408 Y7.808
X11.4 Y7.662
Y7.546
G3 X11.974 Y7.369 I0.317 J0.011
G1 X12.015 Y7.426 Z-0.992
X12.055 Y7.48 Z-0.969
X12.091 Y7.529 Z-0.931
X12.12 Y7.569 Z-0.88
X12.143 Y7.6 Z-0.82
X12.157 Y7.619 Z-0.753
X12.161 Y7.625 Z-0.682
Z4

G28 G91 Z0
G90
G28 G91 X0 Y0
G90
M5
M30
