(Laser Focus Tuning Print)
(Document size: 22.0,60.5 )
()
(Heights: [-5. -4. -3. -2. -1.  0.  1.  2.  3.  4.  5.])
()

(Machine Setup)
G90  (Absolute Position Mode)
G21  (Units = millimeters)

(Grid cell 0,0 )
(Z offset: -5.0)
G0 X1.000 Y55.750 F3000.0
G0 Z0.000
G1 F1000.0
(Character: -)
G1 X1.000 Y57.972
M4 S200.0 (Laser on @ 20%)
G1 F1000.0
G1 X2.778 Y57.972
M5        (Laser off)
G0 F3000.0
(Character: 5)
G1 X5.889 Y59.750
M4 S200.0 (Laser on @ 20%)
G1 F1000.0
G1 X4.111 Y59.750
G1 X4.111 Y57.972
G1 X5.000 Y57.972
G1 X5.889 Y57.083
G1 X5.889 Y56.194
G1 X5.444 Y55.750
G1 X4.111 Y55.750
M5        (Laser off)
G0 F3000.0
(Character: .)
G1 X6.556 Y55.750
M4 S200.0 (Laser on @ 20%)
G1 F1000.0
G1 X6.778 Y55.750
M5        (Laser off)
G0 F3000.0
(Character: 0)
G1 X7.222 Y56.194
M4 S200.0 (Laser on @ 20%)
G1 F1000.0
G1 X7.222 Y59.306
G1 X7.667 Y59.750
G1 X8.556 Y59.750
G1 X9.000 Y59.306
G1 X9.000 Y56.194
G1 X8.556 Y55.750
G1 X7.667 Y55.750
G1 X7.222 Y56.194
M5        (Laser off)
G0 F3000.0
M5        (Laser off)
(Grid cell 0,1 )
G0 X11.000 Y57.750 F3000.0
G0 Z-5.000
G1 F1000.0
M4 S500.0 (Laser on @ 50%)
G1 X21.000 Y57.750
M5        (Laser off)
(Grid cell 1,0 )
(Z offset: -4.0)
G0 X1.000 Y50.250 F3000.0
G0 Z0.000
G1 F1000.0
(Character: -)
G1 X1.000 Y52.472
M4 S500.0 (Laser on @ 50%)
G1 F1000.0
G1 X2.778 Y52.472
M5        (Laser off)
G0 F3000.0
(Character: 4)
G1 X4.111 Y54.250
M4 S500.0 (Laser on @ 50%)
G1 F1000.0
G1 X4.111 Y52.472
G1 X5.889 Y52.472
M5        (Laser off)
G0 F3000.0
G1 X5.889 Y54.250
M4 S500.0 (Laser on @ 50%)
G1 F1000.0
G1 X5.889 Y50.250
M5        (Laser off)
G0 F3000.0
(Character: .)
G1 X6.556 Y50.250
M4 S500.0 (Laser on @ 50%)
G1 F1000.0
G1 X6.778 Y50.250
M5        (Laser off)
G0 F3000.0
(Character: 0)
G1 X7.222 Y50.694
M4 S500.0 (Laser on @ 50%)
G1 F1000.0
G1 X7.222 Y53.806
G1 X7.667 Y54.250
G1 X8.556 Y54.250
G1 X9.000 Y53.806
G1 X9.000 Y50.694
G1 X8.556 Y50.250
G1 X7.667 Y50.250
G1 X7.222 Y50.694
M5        (Laser off)
G0 F3000.0
M5        (Laser off)
(Grid cell 1,1 )
G0 X11.000 Y52.250 F3000.0
G0 Z-4.000
G1 F1000.0
M4 S500.0 (Laser on @ 50%)
G1 X21.000 Y52.250
M5        (Laser off)
(Grid cell 2,0 )
(Z offset: -3.0)
G0 X1.000 Y44.750 F3000.0
G0 Z0.000
G1 F1000.0
(Character: -)
G1 X1.000 Y46.972
M4 S500.0 (Laser on @ 50%)
G1 F1000.0
G1 X2.778 Y46.972
M5        (Laser off)
G0 F3000.0
(Character: 3)
G1 X4.111 Y45.194
M4 S500.0 (Laser on @ 50%)
G1 F1000.0
G1 X5.000 Y44.750
G1 X5.889 Y45.194
G1 X5.889 Y46.528
G1 X5.444 Y46.972
G1 X4.556 Y46.972
M5        (Laser off)
G0 F3000.0
G1 X5.444 Y46.972
M4 S500.0 (Laser on @ 50%)
G1 F1000.0
G1 X5.889 Y47.417
G1 X5.889 Y48.306
G1 X5.000 Y48.750
G1 X4.111 Y48.306
M5        (Laser off)
G0 F3000.0
(Character: .)
G1 X6.556 Y44.750
M4 S500.0 (Laser on @ 50%)
G1 F1000.0
G1 X6.778 Y44.750
M5        (Laser off)
G0 F3000.0
(Character: 0)
G1 X7.222 Y45.194
M4 S500.0 (Laser on @ 50%)
G1 F1000.0
G1 X7.222 Y48.306
G1 X7.667 Y48.750
G1 X8.556 Y48.750
G1 X9.000 Y48.306
G1 X9.000 Y45.194
G1 X8.556 Y44.750
G1 X7.667 Y44.750
G1 X7.222 Y45.194
M5        (Laser off)
G0 F3000.0
M5        (Laser off)
(Grid cell 2,1 )
G0 X11.000 Y46.750 F3000.0
G0 Z-3.000
G1 F1000.0
M4 S500.0 (Laser on @ 50%)
G1 X21.000 Y46.750
M5        (Laser off)
(Grid cell 3,0 )
(Z offset: -2.0)
G0 X1.000 Y39.250 F3000.0
G0 Z0.000
G1 F1000.0
(Character: -)
G1 X1.000 Y41.472
M4 S500.0 (Laser on @ 50%)
G1 F1000.0
G1 X2.778 Y41.472
M5        (Laser off)
G0 F3000.0
(Character: 2)
G1 X5.889 Y39.250
M4 S500.0 (Laser on @ 50%)
G1 F1000.0
G1 X4.111 Y39.250
G1 X5.889 Y42.806
G1 X5.000 Y43.250
G1 X4.111 Y42.806
M5        (Laser off)
G0 F3000.0
(Character: .)
G1 X6.556 Y39.250
M4 S500.0 (Laser on @ 50%)
G1 F1000.0
G1 X6.778 Y39.250
M5        (Laser off)
G0 F3000.0
(Character: 0)
G1 X7.222 Y39.694
M4 S500.0 (Laser on @ 50%)
G1 F1000.0
G1 X7.222 Y42.806
G1 X7.667 Y43.250
G1 X8.556 Y43.250
G1 X9.000 Y42.806
G1 X9.000 Y39.694
G1 X8.556 Y39.250
G1 X7.667 Y39.250
G1 X7.222 Y39.694
M5        (Laser off)
G0 F3000.0
M5        (Laser off)
(Grid cell 3,1 )
G0 X11.000 Y41.250 F3000.0
G0 Z-2.000
G1 F1000.0
M4 S500.0 (Laser on @ 50%)
G1 X21.000 Y41.250
M5        (Laser off)
(Grid cell 4,0 )
(Z offset: -1.0)
G0 X1.000 Y33.750 F3000.0
G0 Z0.000
G1 F1000.0
(Character: -)
G1 X1.000 Y35.972
M4 S500.0 (Laser on @ 50%)
G1 F1000.0
G1 X2.778 Y35.972
M5        (Laser off)
G0 F3000.0
(Character: 1)
G1 X5.000 Y33.750
M4 S500.0 (Laser on @ 50%)
G1 F1000.0
G1 X5.000 Y37.750
M5        (Laser off)
G0 F3000.0
(Character: .)
G1 X6.556 Y33.750
M4 S500.0 (Laser on @ 50%)
G1 F1000.0
G1 X6.778 Y33.750
M5        (Laser off)
G0 F3000.0
(Character: 0)
G1 X7.222 Y34.194
M4 S500.0 (Laser on @ 50%)
G1 F1000.0
G1 X7.222 Y37.306
G1 X7.667 Y37.750
G1 X8.556 Y37.750
G1 X9.000 Y37.306
G1 X9.000 Y34.194
G1 X8.556 Y33.750
G1 X7.667 Y33.750
G1 X7.222 Y34.194
M5        (Laser off)
G0 F3000.0
M5        (Laser off)
(Grid cell 4,1 )
G0 X11.000 Y35.750 F3000.0
G0 Z-1.000
G1 F1000.0
M4 S500.0 (Laser on @ 50%)
G1 X21.000 Y35.750
M5        (Laser off)
(Grid cell 5,0 )
(Z offset:     0.0)
G0 X2.556 Y28.250 F3000.0
G0 Z0.000
G1 F1000.0
(Character: 0)
G1 X2.556 Y28.694
M4 S500.0 (Laser on @ 50%)
G1 F1000.0
G1 X2.556 Y31.806
G1 X3.000 Y32.250
G1 X3.889 Y32.250
G1 X4.333 Y31.806
G1 X4.333 Y28.694
G1 X3.889 Y28.250
G1 X3.000 Y28.250
G1 X2.556 Y28.694
M5        (Laser off)
G0 F3000.0
(Character: .)
G1 X5.000 Y28.250
M4 S500.0 (Laser on @ 50%)
G1 F1000.0
G1 X5.222 Y28.250
M5        (Laser off)
G0 F3000.0
(Character: 0)
G1 X5.667 Y28.694
M4 S500.0 (Laser on @ 50%)
G1 F1000.0
G1 X5.667 Y31.806
G1 X6.111 Y32.250
G1 X7.000 Y32.250
G1 X7.444 Y31.806
G1 X7.444 Y28.694
G1 X7.000 Y28.250
G1 X6.111 Y28.250
G1 X5.667 Y28.694
M5        (Laser off)
G0 F3000.0
M5        (Laser off)
(Grid cell 5,1 )
G0 X11.000 Y30.250 F3000.0
G0 Z0.000
G1 F1000.0
M4 S500.0 (Laser on @ 50%)
G1 X21.000 Y30.250
M5        (Laser off)
(Grid cell 6,0 )
(Z offset: +1.0)
G0 X1.000 Y22.750 F3000.0
G0 Z0.000
G1 F1000.0
(Character: +)
G1 X1.000 Y24.972
M4 S500.0 (Laser on @ 50%)
G1 F1000.0
G1 X2.778 Y24.972
M5        (Laser off)
G0 F3000.0
G1 X1.889 Y24.083
M4 S500.0 (Laser on @ 50%)
G1 F1000.0
G1 X1.889 Y25.861
M5        (Laser off)
G0 F3000.0
(Character: 1)
G1 X5.000 Y22.750
M4 S500.0 (Laser on @ 50%)
G1 F1000.0
G1 X5.000 Y26.750
M5        (Laser off)
G0 F3000.0
(Character: .)
G1 X6.556 Y22.750
M4 S500.0 (Laser on @ 50%)
G1 F1000.0
G1 X6.778 Y22.750
M5        (Laser off)
G0 F3000.0
(Character: 0)
G1 X7.222 Y23.194
M4 S500.0 (Laser on @ 50%)
G1 F1000.0
G1 X7.222 Y26.306
G1 X7.667 Y26.750
G1 X8.556 Y26.750
G1 X9.000 Y26.306
G1 X9.000 Y23.194
G1 X8.556 Y22.750
G1 X7.667 Y22.750
G1 X7.222 Y23.194
M5        (Laser off)
G0 F3000.0
M5        (Laser off)
(Grid cell 6,1 )
G0 X11.000 Y24.750 F3000.0
G0 Z1.000
G1 F1000.0
M4 S500.0 (Laser on @ 50%)
G1 X21.000 Y24.750
M5        (Laser off)
(Grid cell 7,0 )
(Z offset: +2.0)
G0 X1.000 Y17.250 F3000.0
G0 Z0.000
G1 F1000.0
(Character: +)
G1 X1.000 Y19.472
M4 S500.0 (Laser on @ 50%)
G1 F1000.0
G1 X2.778 Y19.472
M5        (Laser off)
G0 F3000.0
G1 X1.889 Y18.583
M4 S500.0 (Laser on @ 50%)
G1 F1000.0
G1 X1.889 Y20.361
M5        (Laser off)
G0 F3000.0
(Character: 2)
G1 X5.889 Y17.250
M4 S500.0 (Laser on @ 50%)
G1 F1000.0
G1 X4.111 Y17.250
G1 X5.889 Y20.806
G1 X5.000 Y21.250
G1 X4.111 Y20.806
M5        (Laser off)
G0 F3000.0
(Character: .)
G1 X6.556 Y17.250
M4 S500.0 (Laser on @ 50%)
G1 F1000.0
G1 X6.778 Y17.250
M5        (Laser off)
G0 F3000.0
(Character: 0)
G1 X7.222 Y17.694
M4 S500.0 (Laser on @ 50%)
G1 F1000.0
G1 X7.222 Y20.806
G1 X7.667 Y21.250
G1 X8.556 Y21.250
G1 X9.000 Y20.806
G1 X9.000 Y17.694
G1 X8.556 Y17.250
G1 X7.667 Y17.250
G1 X7.222 Y17.694
M5        (Laser off)
G0 F3000.0
M5        (Laser off)
(Grid cell 7,1 )
G0 X11.000 Y19.250 F3000.0
G0 Z2.000
G1 F1000.0
M4 S500.0 (Laser on @ 50%)
G1 X21.000 Y19.250
M5        (Laser off)
(Grid cell 8,0 )
(Z offset: +3.0)
G0 X1.000 Y11.750 F3000.0
G0 Z0.000
G1 F1000.0
(Character: +)
G1 X1.000 Y13.972
M4 S500.0 (Laser on @ 50%)
G1 F1000.0
G1 X2.778 Y13.972
M5        (Laser off)
G0 F3000.0
G1 X1.889 Y13.083
M4 S500.0 (Laser on @ 50%)
G1 F1000.0
G1 X1.889 Y14.861
M5        (Laser off)
G0 F3000.0
(Character: 3)
G1 X4.111 Y12.194
M4 S500.0 (Laser on @ 50%)
G1 F1000.0
G1 X5.000 Y11.750
G1 X5.889 Y12.194
G1 X5.889 Y13.528
G1 X5.444 Y13.972
G1 X4.556 Y13.972
M5        (Laser off)
G0 F3000.0
G1 X5.444 Y13.972
M4 S500.0 (Laser on @ 50%)
G1 F1000.0
G1 X5.889 Y14.417
G1 X5.889 Y15.306
G1 X5.000 Y15.750
G1 X4.111 Y15.306
M5        (Laser off)
G0 F3000.0
(Character: .)
G1 X6.556 Y11.750
M4 S500.0 (Laser on @ 50%)
G1 F1000.0
G1 X6.778 Y11.750
M5        (Laser off)
G0 F3000.0
(Character: 0)
G1 X7.222 Y12.194
M4 S500.0 (Laser on @ 50%)
G1 F1000.0
G1 X7.222 Y15.306
G1 X7.667 Y15.750
G1 X8.556 Y15.750
G1 X9.000 Y15.306
G1 X9.000 Y12.194
G1 X8.556 Y11.750
G1 X7.667 Y11.750
G1 X7.222 Y12.194
M5        (Laser off)
G0 F3000.0
M5        (Laser off)
(Grid cell 8,1 )
G0 X11.000 Y13.750 F3000.0
G0 Z3.000
G1 F1000.0
M4 S500.0 (Laser on @ 50%)
G1 X21.000 Y13.750
M5        (Laser off)
(Grid cell 9,0 )
(Z offset: +4.0)
G0 X1.000 Y6.250 F3000.0
G0 Z0.000
G1 F1000.0
(Character: +)
G1 X1.000 Y8.472
M4 S500.0 (Laser on @ 50%)
G1 F1000.0
G1 X2.778 Y8.472
M5        (Laser off)
G0 F3000.0
G1 X1.889 Y7.583
M4 S500.0 (Laser on @ 50%)
G1 F1000.0
G1 X1.889 Y9.361
M5        (Laser off)
G0 F3000.0
(Character: 4)
G1 X4.111 Y10.250
M4 S500.0 (Laser on @ 50%)
G1 F1000.0
G1 X4.111 Y8.472
G1 X5.889 Y8.472
M5        (Laser off)
G0 F3000.0
G1 X5.889 Y10.250
M4 S500.0 (Laser on @ 50%)
G1 F1000.0
G1 X5.889 Y6.250
M5        (Laser off)
G0 F3000.0
(Character: .)
G1 X6.556 Y6.250
M4 S500.0 (Laser on @ 50%)
G1 F1000.0
G1 X6.778 Y6.250
M5        (Laser off)
G0 F3000.0
(Character: 0)
G1 X7.222 Y6.694
M4 S500.0 (Laser on @ 50%)
G1 F1000.0
G1 X7.222 Y9.806
G1 X7.667 Y10.250
G1 X8.556 Y10.250
G1 X9.000 Y9.806
G1 X9.000 Y6.694
G1 X8.556 Y6.250
G1 X7.667 Y6.250
G1 X7.222 Y6.694
M5        (Laser off)
G0 F3000.0
M5        (Laser off)
(Grid cell 9,1 )
G0 X11.000 Y8.250 F3000.0
G0 Z4.000
G1 F1000.0
M4 S500.0 (Laser on @ 50%)
G1 X21.000 Y8.250
M5        (Laser off)
(Grid cell 10,0 )
(Z offset: +5.0)
G0 X1.000 Y0.750 F3000.0
G0 Z0.000
G1 F1000.0
(Character: +)
G1 X1.000 Y2.972
M4 S500.0 (Laser on @ 50%)
G1 F1000.0
G1 X2.778 Y2.972
M5        (Laser off)
G0 F3000.0
G1 X1.889 Y2.083
M4 S500.0 (Laser on @ 50%)
G1 F1000.0
G1 X1.889 Y3.861
M5        (Laser off)
G0 F3000.0
(Character: 5)
G1 X5.889 Y4.750
M4 S500.0 (Laser on @ 50%)
G1 F1000.0
G1 X4.111 Y4.750
G1 X4.111 Y2.972
G1 X5.000 Y2.972
G1 X5.889 Y2.083
G1 X5.889 Y1.194
G1 X5.444 Y0.750
G1 X4.111 Y0.750
M5        (Laser off)
G0 F3000.0
(Character: .)
G1 X6.556 Y0.750
M4 S500.0 (Laser on @ 50%)
G1 F1000.0
G1 X6.778 Y0.750
M5        (Laser off)
G0 F3000.0
(Character: 0)
G1 X7.222 Y1.194
M4 S500.0 (Laser on @ 50%)
G1 F1000.0
G1 X7.222 Y4.306
G1 X7.667 Y4.750
G1 X8.556 Y4.750
G1 X9.000 Y4.306
G1 X9.000 Y1.194
G1 X8.556 Y0.750
G1 X7.667 Y0.750
G1 X7.222 Y1.194
M5        (Laser off)
G0 F3000.0
M5        (Laser off)
(Grid cell 10,1 )
G0 X11.000 Y2.750 F3000.0
G0 Z5.000
G1 F1000.0
M4 S500.0 (Laser on @ 50%)
G1 X21.000 Y2.750
M5        (Laser off)

M2 (End Document)
