(Speed & Power Tuning Print)
(Document size: 58.1,69.0 )
()
(Speeds: [ 200  300  400  500  600  700  800  900 1000])
(Powers: [20 30 40 50 60 70 80])
()
(Square Count: 63)
(Square Size : 5)
()

(Machine Setup)
G90  (Absolute Position Mode)
G21  (Units = millimeters)

(Grid cell 0,0 )
( *Empty Cell* )
(Grid cell 0,1 )
(Text: "POWER")
G0 X25.833 Y67.000 F3000.0
G0 Z0.000
G1 F500.0
(Character: P)
G1 X25.833 Y67.000
M4 S400.0 (Laser on @ 40%)
G1 F500.0
G1 X25.833 Y68.778
G1 X26.056 Y69.000
G1 X26.722 Y69.000
G1 X26.944 Y68.778
G1 X26.944 Y68.111
G1 X26.722 Y67.889
G1 X25.833 Y67.889
M5        (Laser off)
G0 F3000.0
(Character: O)
G1 X27.611 Y67.222
M4 S400.0 (Laser on @ 40%)
G1 F500.0
G1 X27.611 Y68.778
G1 X27.833 Y69.000
G1 X28.500 Y69.000
G1 X28.722 Y68.778
G1 X28.722 Y67.222
G1 X28.500 Y67.000
G1 X27.833 Y67.000
G1 X27.611 Y67.222
M5        (Laser off)
G0 F3000.0
(Character: W)
G1 X29.389 Y69.000
M4 S400.0 (Laser on @ 40%)
G1 F500.0
G1 X29.833 Y67.000
G1 X30.056 Y69.000
G1 X30.278 Y67.000
G1 X30.722 Y69.000
M5        (Laser off)
G0 F3000.0
(Character: E)
G1 X31.389 Y67.000
M4 S400.0 (Laser on @ 40%)
G1 F500.0
G1 X31.389 Y69.000
G1 X32.500 Y69.000
M5        (Laser off)
G0 F3000.0
G1 X32.500 Y68.111
M4 S400.0 (Laser on @ 40%)
G1 F500.0
G1 X31.389 Y68.111
M5        (Laser off)
G0 F3000.0
G1 X32.500 Y67.000
M4 S400.0 (Laser on @ 40%)
G1 F500.0
G1 X31.389 Y67.000
G1 X31.389 Y69.000
M5        (Laser off)
G0 F3000.0
(Character: R)
G1 X33.167 Y67.000
M4 S400.0 (Laser on @ 40%)
G1 F500.0
G1 X33.167 Y68.778
G1 X33.389 Y69.000
G1 X33.833 Y69.000
G1 X34.056 Y68.778
G1 X34.278 Y68.556
G1 X34.278 Y68.333
G1 X34.056 Y68.111
G1 X33.833 Y67.889
G1 X33.167 Y67.889
M5        (Laser off)
G0 F3000.0
G1 X33.833 Y67.889
M4 S400.0 (Laser on @ 40%)
G1 F500.0
G1 X34.056 Y67.667
G1 X34.278 Y67.444
G1 X34.278 Y67.000
M5        (Laser off)
G0 F3000.0
M5        (Laser off)
(Grid cell 1,0 )
(Text: "SPEED")
G0 X0.000 Y29.389 F3000.0
G0 Z0.000
G1 F500.0
(Character: S)
G1 X2.000 Y29.389
M4 S400.0 (Laser on @ 40%)
G1 F500.0
G1 X2.000 Y30.278
G1 X1.778 Y30.500
G1 X1.333 Y30.500
G1 X1.111 Y30.278
G1 X1.111 Y29.611
G1 X0.889 Y29.389
G1 X0.222 Y29.389
G1 X0.000 Y29.611
G1 X0.000 Y30.500
M5        (Laser off)
G0 F3000.0
(Character: P)
G1 X2.000 Y31.167
M4 S400.0 (Laser on @ 40%)
G1 F500.0
G1 X0.222 Y31.167
G1 X0.000 Y31.389
G1 X0.000 Y32.056
G1 X0.222 Y32.278
G1 X0.889 Y32.278
G1 X1.111 Y32.056
G1 X1.111 Y31.167
M5        (Laser off)
G0 F3000.0
(Character: E)
G1 X2.000 Y32.944
M4 S400.0 (Laser on @ 40%)
G1 F500.0
G1 X0.000 Y32.944
G1 X0.000 Y34.056
M5        (Laser off)
G0 F3000.0
G1 X0.889 Y34.056
M4 S400.0 (Laser on @ 40%)
G1 F500.0
G1 X0.889 Y32.944
M5        (Laser off)
G0 F3000.0
G1 X2.000 Y34.056
M4 S400.0 (Laser on @ 40%)
G1 F500.0
G1 X2.000 Y32.944
G1 X0.000 Y32.944
M5        (Laser off)
G0 F3000.0
(Character: E)
G1 X2.000 Y34.722
M4 S400.0 (Laser on @ 40%)
G1 F500.0
G1 X0.000 Y34.722
G1 X0.000 Y35.833
M5        (Laser off)
G0 F3000.0
G1 X0.889 Y35.833
M4 S400.0 (Laser on @ 40%)
G1 F500.0
G1 X0.889 Y34.722
M5        (Laser off)
G0 F3000.0
G1 X2.000 Y35.833
M4 S400.0 (Laser on @ 40%)
G1 F500.0
G1 X2.000 Y34.722
G1 X0.000 Y34.722
M5        (Laser off)
G0 F3000.0
(Character: D)
G1 X2.000 Y36.500
M4 S400.0 (Laser on @ 40%)
G1 F500.0
G1 X0.000 Y36.500
G1 X0.000 Y37.167
G1 X0.222 Y37.389
G1 X0.444 Y37.611
G1 X1.556 Y37.611
G1 X1.778 Y37.389
G1 X2.000 Y37.167
G1 X2.000 Y36.500
G1 X0.000 Y36.500
M5        (Laser off)
G0 F3000.0
M5        (Laser off)
(Grid cell 1,1 )
(Grid cell 0,0 )
( *Empty Cell* )
(Grid cell 0,1 )
(Power Label: 20)
G0 X10.500 Y64.000 F3000.0
G0 Z0.000
G1 F500.0
(Character: 2)
G1 X11.389 Y64.000
M4 S400.0 (Laser on @ 40%)
G1 F500.0
G1 X10.500 Y64.000
G1 X11.389 Y65.778
G1 X10.944 Y66.000
G1 X10.500 Y65.778
M5        (Laser off)
G0 F3000.0
(Character: 0)
G1 X12.056 Y64.222
M4 S400.0 (Laser on @ 40%)
G1 F500.0
G1 X12.056 Y65.778
G1 X12.278 Y66.000
G1 X12.722 Y66.000
G1 X12.944 Y65.778
G1 X12.944 Y64.222
G1 X12.722 Y64.000
G1 X12.278 Y64.000
G1 X12.056 Y64.222
M5        (Laser off)
G0 F3000.0
(Character: %)
G1 X13.611 Y65.556
M4 S400.0 (Laser on @ 40%)
G1 F500.0
G1 X13.611 Y65.778
G1 X13.833 Y66.000
G1 X14.056 Y65.778
G1 X14.056 Y65.556
G1 X13.833 Y65.333
G1 X13.611 Y65.556
M5        (Laser off)
G0 F3000.0
G1 X13.611 Y64.444
M4 S400.0 (Laser on @ 40%)
G1 F500.0
G1 X14.722 Y65.778
M5        (Laser off)
G0 F3000.0
G1 X14.278 Y64.000
M4 S400.0 (Laser on @ 40%)
G1 F500.0
G1 X14.278 Y64.444
G1 X14.500 Y64.667
G1 X14.722 Y64.444
G1 X14.722 Y64.222
G1 X14.500 Y64.000
G1 X14.278 Y64.222
M5        (Laser off)
G0 F3000.0
M5        (Laser off)
(Grid cell 0,2 )
(Power Label: 30)
G0 X17.500 Y64.000 F3000.0
G0 Z0.000
G1 F500.0
(Character: 3)
G1 X17.500 Y64.222
M4 S400.0 (Laser on @ 40%)
G1 F500.0
G1 X17.944 Y64.000
G1 X18.389 Y64.222
G1 X18.389 Y64.889
G1 X18.167 Y65.111
G1 X17.722 Y65.111
M5        (Laser off)
G0 F3000.0
G1 X18.167 Y65.111
M4 S400.0 (Laser on @ 40%)
G1 F500.0
G1 X18.389 Y65.333
G1 X18.389 Y65.778
G1 X17.944 Y66.000
G1 X17.500 Y65.778
M5        (Laser off)
G0 F3000.0
(Character: 0)
G1 X19.056 Y64.222
M4 S400.0 (Laser on @ 40%)
G1 F500.0
G1 X19.056 Y65.778
G1 X19.278 Y66.000
G1 X19.722 Y66.000
G1 X19.944 Y65.778
G1 X19.944 Y64.222
G1 X19.722 Y64.000
G1 X19.278 Y64.000
G1 X19.056 Y64.222
M5        (Laser off)
G0 F3000.0
(Character: %)
G1 X20.611 Y65.556
M4 S400.0 (Laser on @ 40%)
G1 F500.0
G1 X20.611 Y65.778
G1 X20.833 Y66.000
G1 X21.056 Y65.778
G1 X21.056 Y65.556
G1 X20.833 Y65.333
G1 X20.611 Y65.556
M5        (Laser off)
G0 F3000.0
G1 X20.611 Y64.444
M4 S400.0 (Laser on @ 40%)
G1 F500.0
G1 X21.722 Y65.778
M5        (Laser off)
G0 F3000.0
G1 X21.278 Y64.000
M4 S400.0 (Laser on @ 40%)
G1 F500.0
G1 X21.278 Y64.444
G1 X21.500 Y64.667
G1 X21.722 Y64.444
G1 X21.722 Y64.222
G1 X21.500 Y64.000
G1 X21.278 Y64.222
M5        (Laser off)
G0 F3000.0
M5        (Laser off)
(Grid cell 0,3 )
(Power Label: 40)
G0 X24.500 Y64.000 F3000.0
G0 Z0.000
G1 F500.0
(Character: 4)
G1 X24.500 Y66.000
M4 S400.0 (Laser on @ 40%)
G1 F500.0
G1 X24.500 Y65.111
G1 X25.389 Y65.111
M5        (Laser off)
G0 F3000.0
G1 X25.389 Y66.000
M4 S400.0 (Laser on @ 40%)
G1 F500.0
G1 X25.389 Y64.000
M5        (Laser off)
G0 F3000.0
(Character: 0)
G1 X26.056 Y64.222
M4 S400.0 (Laser on @ 40%)
G1 F500.0
G1 X26.056 Y65.778
G1 X26.278 Y66.000
G1 X26.722 Y66.000
G1 X26.944 Y65.778
G1 X26.944 Y64.222
G1 X26.722 Y64.000
G1 X26.278 Y64.000
G1 X26.056 Y64.222
M5        (Laser off)
G0 F3000.0
(Character: %)
G1 X27.611 Y65.556
M4 S400.0 (Laser on @ 40%)
G1 F500.0
G1 X27.611 Y65.778
G1 X27.833 Y66.000
G1 X28.056 Y65.778
G1 X28.056 Y65.556
G1 X27.833 Y65.333
G1 X27.611 Y65.556
M5        (Laser off)
G0 F3000.0
G1 X27.611 Y64.444
M4 S400.0 (Laser on @ 40%)
G1 F500.0
G1 X28.722 Y65.778
M5        (Laser off)
G0 F3000.0
G1 X28.278 Y64.000
M4 S400.0 (Laser on @ 40%)
G1 F500.0
G1 X28.278 Y64.444
G1 X28.500 Y64.667
G1 X28.722 Y64.444
G1 X28.722 Y64.222
G1 X28.500 Y64.000
G1 X28.278 Y64.222
M5        (Laser off)
G0 F3000.0
M5        (Laser off)
(Grid cell 0,4 )
(Power Label: 50)
G0 X31.500 Y64.000 F3000.0
G0 Z0.000
G1 F500.0
(Character: 5)
G1 X32.389 Y66.000
M4 S400.0 (Laser on @ 40%)
G1 F500.0
G1 X31.500 Y66.000
G1 X31.500 Y65.111
G1 X31.944 Y65.111
G1 X32.389 Y64.667
G1 X32.389 Y64.222
G1 X32.167 Y64.000
G1 X31.500 Y64.000
M5        (Laser off)
G0 F3000.0
(Character: 0)
G1 X33.056 Y64.222
M4 S400.0 (Laser on @ 40%)
G1 F500.0
G1 X33.056 Y65.778
G1 X33.278 Y66.000
G1 X33.722 Y66.000
G1 X33.944 Y65.778
G1 X33.944 Y64.222
G1 X33.722 Y64.000
G1 X33.278 Y64.000
G1 X33.056 Y64.222
M5        (Laser off)
G0 F3000.0
(Character: %)
G1 X34.611 Y65.556
M4 S400.0 (Laser on @ 40%)
G1 F500.0
G1 X34.611 Y65.778
G1 X34.833 Y66.000
G1 X35.056 Y65.778
G1 X35.056 Y65.556
G1 X34.833 Y65.333
G1 X34.611 Y65.556
M5        (Laser off)
G0 F3000.0
G1 X34.611 Y64.444
M4 S400.0 (Laser on @ 40%)
G1 F500.0
G1 X35.722 Y65.778
M5        (Laser off)
G0 F3000.0
G1 X35.278 Y64.000
M4 S400.0 (Laser on @ 40%)
G1 F500.0
G1 X35.278 Y64.444
G1 X35.500 Y64.667
G1 X35.722 Y64.444
G1 X35.722 Y64.222
G1 X35.500 Y64.000
G1 X35.278 Y64.222
M5        (Laser off)
G0 F3000.0
M5        (Laser off)
(Grid cell 0,5 )
(Power Label: 60)
G0 X38.500 Y64.000 F3000.0
G0 Z0.000
G1 F500.0
(Character: 6)
G1 X39.389 Y66.000
M4 S400.0 (Laser on @ 40%)
G1 F500.0
G1 X38.944 Y66.000
G1 X38.500 Y65.556
G1 X38.500 Y64.222
G1 X38.722 Y64.000
G1 X39.167 Y64.000
G1 X39.389 Y64.444
G1 X39.389 Y64.667
G1 X38.944 Y65.111
G1 X38.500 Y64.889
M5        (Laser off)
G0 F3000.0
(Character: 0)
G1 X40.056 Y64.222
M4 S400.0 (Laser on @ 40%)
G1 F500.0
G1 X40.056 Y65.778
G1 X40.278 Y66.000
G1 X40.722 Y66.000
G1 X40.944 Y65.778
G1 X40.944 Y64.222
G1 X40.722 Y64.000
G1 X40.278 Y64.000
G1 X40.056 Y64.222
M5        (Laser off)
G0 F3000.0
(Character: %)
G1 X41.611 Y65.556
M4 S400.0 (Laser on @ 40%)
G1 F500.0
G1 X41.611 Y65.778
G1 X41.833 Y66.000
G1 X42.056 Y65.778
G1 X42.056 Y65.556
G1 X41.833 Y65.333
G1 X41.611 Y65.556
M5        (Laser off)
G0 F3000.0
G1 X41.611 Y64.444
M4 S400.0 (Laser on @ 40%)
G1 F500.0
G1 X42.722 Y65.778
M5        (Laser off)
G0 F3000.0
G1 X42.278 Y64.000
M4 S400.0 (Laser on @ 40%)
G1 F500.0
G1 X42.278 Y64.444
G1 X42.500 Y64.667
G1 X42.722 Y64.444
G1 X42.722 Y64.222
G1 X42.500 Y64.000
G1 X42.278 Y64.222
M5        (Laser off)
G0 F3000.0
M5        (Laser off)
(Grid cell 0,6 )
(Power Label: 70)
G0 X45.500 Y64.000 F3000.0
G0 Z0.000
G1 F500.0
(Character: 7)
G1 X45.500 Y64.000
M4 S400.0 (Laser on @ 40%)
G1 F500.0
G1 X46.389 Y66.000
G1 X45.500 Y66.000
M5        (Laser off)
G0 F3000.0
(Character: 0)
G1 X47.056 Y64.222
M4 S400.0 (Laser on @ 40%)
G1 F500.0
G1 X47.056 Y65.778
G1 X47.278 Y66.000
G1 X47.722 Y66.000
G1 X47.944 Y65.778
G1 X47.944 Y64.222
G1 X47.722 Y64.000
G1 X47.278 Y64.000
G1 X47.056 Y64.222
M5        (Laser off)
G0 F3000.0
(Character: %)
G1 X48.611 Y65.556
M4 S400.0 (Laser on @ 40%)
G1 F500.0
G1 X48.611 Y65.778
G1 X48.833 Y66.000
G1 X49.056 Y65.778
G1 X49.056 Y65.556
G1 X48.833 Y65.333
G1 X48.611 Y65.556
M5        (Laser off)
G0 F3000.0
G1 X48.611 Y64.444
M4 S400.0 (Laser on @ 40%)
G1 F500.0
G1 X49.722 Y65.778
M5        (Laser off)
G0 F3000.0
G1 X49.278 Y64.000
M4 S400.0 (Laser on @ 40%)
G1 F500.0
G1 X49.278 Y64.444
G1 X49.500 Y64.667
G1 X49.722 Y64.444
G1 X49.722 Y64.222
G1 X49.500 Y64.000
G1 X49.278 Y64.222
M5        (Laser off)
G0 F3000.0
M5        (Laser off)
(Grid cell 0,7 )
(Power Label: 80)
G0 X52.500 Y64.000 F3000.0
G0 Z0.000
G1 F500.0
(Character: 8)
G1 X52.944 Y64.000
M4 S400.0 (Laser on @ 40%)
G1 F500.0
G1 X53.167 Y64.000
G1 X53.389 Y64.222
G1 X53.389 Y64.889
G1 X53.167 Y65.111
G1 X52.722 Y65.111
G1 X52.500 Y65.333
G1 X52.500 Y65.778
G1 X52.722 Y66.000
G1 X53.167 Y66.000
G1 X53.389 Y65.778
G1 X53.389 Y65.333
G1 X53.167 Y65.111
G1 X52.722 Y65.111
G1 X52.500 Y64.889
G1 X52.500 Y64.222
G1 X52.722 Y64.000
G1 X53.167 Y64.000
M5        (Laser off)
G0 F3000.0
(Character: 0)
G1 X54.056 Y64.222
M4 S400.0 (Laser on @ 40%)
G1 F500.0
G1 X54.056 Y65.778
G1 X54.278 Y66.000
G1 X54.722 Y66.000
G1 X54.944 Y65.778
G1 X54.944 Y64.222
G1 X54.722 Y64.000
G1 X54.278 Y64.000
G1 X54.056 Y64.222
M5        (Laser off)
G0 F3000.0
(Character: %)
G1 X55.611 Y65.556
M4 S400.0 (Laser on @ 40%)
G1 F500.0
G1 X55.611 Y65.778
G1 X55.833 Y66.000
G1 X56.056 Y65.778
G1 X56.056 Y65.556
G1 X55.833 Y65.333
G1 X55.611 Y65.556
M5        (Laser off)
G0 F3000.0
G1 X55.611 Y64.444
M4 S400.0 (Laser on @ 40%)
G1 F500.0
G1 X56.722 Y65.778
M5        (Laser off)
G0 F3000.0
G1 X56.278 Y64.000
M4 S400.0 (Laser on @ 40%)
G1 F500.0
G1 X56.278 Y64.444
G1 X56.500 Y64.667
G1 X56.722 Y64.444
G1 X56.722 Y64.222
G1 X56.500 Y64.000
G1 X56.278 Y64.222
M5        (Laser off)
G0 F3000.0
M5        (Laser off)
(Grid cell 1,0 )
(Speed Label: 1000)
G0 X3.000 Y58.500 F3000.0
G0 Z0.000
G1 F500.0
(Character: 1)
G1 X3.000 Y58.500
M4 S400.0 (Laser on @ 40%)
G1 F500.0
G1 X3.000 Y60.500
M5        (Laser off)
G0 F3000.0
(Character: 0)
G1 X4.111 Y58.722
M4 S400.0 (Laser on @ 40%)
G1 F500.0
G1 X4.111 Y60.278
G1 X4.333 Y60.500
G1 X4.778 Y60.500
G1 X5.000 Y60.278
G1 X5.000 Y58.722
G1 X4.778 Y58.500
G1 X4.333 Y58.500
G1 X4.111 Y58.722
M5        (Laser off)
G0 F3000.0
(Character: 0)
G1 X5.667 Y58.722
M4 S400.0 (Laser on @ 40%)
G1 F500.0
G1 X5.667 Y60.278
G1 X5.889 Y60.500
G1 X6.333 Y60.500
G1 X6.556 Y60.278
G1 X6.556 Y58.722
G1 X6.333 Y58.500
G1 X5.889 Y58.500
G1 X5.667 Y58.722
M5        (Laser off)
G0 F3000.0
(Character: 0)
G1 X7.222 Y58.722
M4 S400.0 (Laser on @ 40%)
G1 F500.0
G1 X7.222 Y60.278
G1 X7.444 Y60.500
G1 X7.889 Y60.500
G1 X8.111 Y60.278
G1 X8.111 Y58.722
G1 X7.889 Y58.500
G1 X7.444 Y58.500
G1 X7.222 Y58.722
M5        (Laser off)
G0 F3000.0
M5        (Laser off)
(Grid cell 1,1 )
(Power=20%, Speed=1000)
G0 X10.111 Y57.000 F3000.0
G0 Z0.000
G1 F1000.0
M4 S200.0 (Laser on @ 20%)
G1 X10.111 Y62.000 (Left)
G1 X15.111 Y62.000 (Top)
G1 X15.111 Y57.000 (Right)
G1 X10.111 Y57.000 (Bottom)
M5        (Laser off)
(Grid cell 1,2 )
(Power=30%, Speed=1000)
G0 X17.111 Y57.000 F3000.0
G0 Z0.000
G1 F1000.0
M4 S300.0 (Laser on @ 30%)
G1 X17.111 Y62.000 (Left)
G1 X22.111 Y62.000 (Top)
G1 X22.111 Y57.000 (Right)
G1 X17.111 Y57.000 (Bottom)
M5        (Laser off)
(Grid cell 1,3 )
(Power=40%, Speed=1000)
G0 X24.111 Y57.000 F3000.0
G0 Z0.000
G1 F1000.0
M4 S400.0 (Laser on @ 40%)
G1 X24.111 Y62.000 (Left)
G1 X29.111 Y62.000 (Top)
G1 X29.111 Y57.000 (Right)
G1 X24.111 Y57.000 (Bottom)
M5        (Laser off)
(Grid cell 1,4 )
(Power=50%, Speed=1000)
G0 X31.111 Y57.000 F3000.0
G0 Z0.000
G1 F1000.0
M4 S500.0 (Laser on @ 50%)
G1 X31.111 Y62.000 (Left)
G1 X36.111 Y62.000 (Top)
G1 X36.111 Y57.000 (Right)
G1 X31.111 Y57.000 (Bottom)
M5        (Laser off)
(Grid cell 1,5 )
(Power=60%, Speed=1000)
G0 X38.111 Y57.000 F3000.0
G0 Z0.000
G1 F1000.0
M4 S600.0 (Laser on @ 60%)
G1 X38.111 Y62.000 (Left)
G1 X43.111 Y62.000 (Top)
G1 X43.111 Y57.000 (Right)
G1 X38.111 Y57.000 (Bottom)
M5        (Laser off)
(Grid cell 1,6 )
(Power=70%, Speed=1000)
G0 X45.111 Y57.000 F3000.0
G0 Z0.000
G1 F1000.0
M4 S700.0 (Laser on @ 70%)
G1 X45.111 Y62.000 (Left)
G1 X50.111 Y62.000 (Top)
G1 X50.111 Y57.000 (Right)
G1 X45.111 Y57.000 (Bottom)
M5        (Laser off)
(Grid cell 1,7 )
(Power=80%, Speed=1000)
G0 X52.111 Y57.000 F3000.0
G0 Z0.000
G1 F1000.0
M4 S800.0 (Laser on @ 80%)
G1 X52.111 Y62.000 (Left)
G1 X57.111 Y62.000 (Top)
G1 X57.111 Y57.000 (Right)
G1 X52.111 Y57.000 (Bottom)
M5        (Laser off)
(Grid cell 2,0 )
(Speed Label: 900)
G0 X3.556 Y51.500 F3000.0
G0 Z0.000
G1 F500.0
(Character: 9)
G1 X4.444 Y51.500
M4 S400.0 (Laser on @ 40%)
G1 F500.0
G1 X4.444 Y53.056
G1 X4.222 Y53.500
G1 X3.778 Y53.500
G1 X3.556 Y53.056
G1 X3.778 Y52.389
G1 X4.444 Y52.389
M5        (Laser off)
G0 F3000.0
(Character: 0)
G1 X5.111 Y51.722
M4 S400.0 (Laser on @ 40%)
G1 F500.0
G1 X5.111 Y53.278
G1 X5.333 Y53.500
G1 X5.778 Y53.500
G1 X6.000 Y53.278
G1 X6.000 Y51.722
G1 X5.778 Y51.500
G1 X5.333 Y51.500
G1 X5.111 Y51.722
M5        (Laser off)
G0 F3000.0
(Character: 0)
G1 X6.667 Y51.722
M4 S400.0 (Laser on @ 40%)
G1 F500.0
G1 X6.667 Y53.278
G1 X6.889 Y53.500
G1 X7.333 Y53.500
G1 X7.556 Y53.278
G1 X7.556 Y51.722
G1 X7.333 Y51.500
G1 X6.889 Y51.500
G1 X6.667 Y51.722
M5        (Laser off)
G0 F3000.0
M5        (Laser off)
(Grid cell 2,1 )
(Power=20%, Speed=900)
G0 X10.111 Y50.000 F3000.0
G0 Z0.000
G1 F900.0
M4 S200.0 (Laser on @ 20%)
G1 X10.111 Y55.000 (Left)
G1 X15.111 Y55.000 (Top)
G1 X15.111 Y50.000 (Right)
G1 X10.111 Y50.000 (Bottom)
M5        (Laser off)
(Grid cell 2,2 )
(Power=30%, Speed=900)
G0 X17.111 Y50.000 F3000.0
G0 Z0.000
G1 F900.0
M4 S300.0 (Laser on @ 30%)
G1 X17.111 Y55.000 (Left)
G1 X22.111 Y55.000 (Top)
G1 X22.111 Y50.000 (Right)
G1 X17.111 Y50.000 (Bottom)
M5        (Laser off)
(Grid cell 2,3 )
(Power=40%, Speed=900)
G0 X24.111 Y50.000 F3000.0
G0 Z0.000
G1 F900.0
M4 S400.0 (Laser on @ 40%)
G1 X24.111 Y55.000 (Left)
G1 X29.111 Y55.000 (Top)
G1 X29.111 Y50.000 (Right)
G1 X24.111 Y50.000 (Bottom)
M5        (Laser off)
(Grid cell 2,4 )
(Power=50%, Speed=900)
G0 X31.111 Y50.000 F3000.0
G0 Z0.000
G1 F900.0
M4 S500.0 (Laser on @ 50%)
G1 X31.111 Y55.000 (Left)
G1 X36.111 Y55.000 (Top)
G1 X36.111 Y50.000 (Right)
G1 X31.111 Y50.000 (Bottom)
M5        (Laser off)
(Grid cell 2,5 )
(Power=60%, Speed=900)
G0 X38.111 Y50.000 F3000.0
G0 Z0.000
G1 F900.0
M4 S600.0 (Laser on @ 60%)
G1 X38.111 Y55.000 (Left)
G1 X43.111 Y55.000 (Top)
G1 X43.111 Y50.000 (Right)
G1 X38.111 Y50.000 (Bottom)
M5        (Laser off)
(Grid cell 2,6 )
(Power=70%, Speed=900)
G0 X45.111 Y50.000 F3000.0
G0 Z0.000
G1 F900.0
M4 S700.0 (Laser on @ 70%)
G1 X45.111 Y55.000 (Left)
G1 X50.111 Y55.000 (Top)
G1 X50.111 Y50.000 (Right)
G1 X45.111 Y50.000 (Bottom)
M5        (Laser off)
(Grid cell 2,7 )
(Power=80%, Speed=900)
G0 X52.111 Y50.000 F3000.0
G0 Z0.000
G1 F900.0
M4 S800.0 (Laser on @ 80%)
G1 X52.111 Y55.000 (Left)
G1 X57.111 Y55.000 (Top)
G1 X57.111 Y50.000 (Right)
G1 X52.111 Y50.000 (Bottom)
M5        (Laser off)
(Grid cell 3,0 )
(Speed Label: 800)
G0 X3.556 Y44.500 F3000.0
G0 Z0.000
G1 F500.0
(Character: 8)
G1 X4.000 Y44.500
M4 S400.0 (Laser on @ 40%)
G1 F500.0
G1 X4.222 Y44.500
G1 X4.444 Y44.722
G1 X4.444 Y45.389
G1 X4.222 Y45.611
G1 X3.778 Y45.611
G1 X3.556 Y45.833
G1 X3.556 Y46.278
G1 X3.778 Y46.500
G1 X4.222 Y46.500
G1 X4.444 Y46.278
G1 X4.444 Y45.833
G1 X4.222 Y45.611
G1 X3.778 Y45.611
G1 X3.556 Y45.389
G1 X3.556 Y44.722
G1 X3.778 Y44.500
G1 X4.222 Y44.500
M5        (Laser off)
G0 F3000.0
(Character: 0)
G1 X5.111 Y44.722
M4 S400.0 (Laser on @ 40%)
G1 F500.0
G1 X5.111 Y46.278
G1 X5.333 Y46.500
G1 X5.778 Y46.500
G1 X6.000 Y46.278
G1 X6.000 Y44.722
G1 X5.778 Y44.500
G1 X5.333 Y44.500
G1 X5.111 Y44.722
M5        (Laser off)
G0 F3000.0
(Character: 0)
G1 X6.667 Y44.722
M4 S400.0 (Laser on @ 40%)
G1 F500.0
G1 X6.667 Y46.278
G1 X6.889 Y46.500
G1 X7.333 Y46.500
G1 X7.556 Y46.278
G1 X7.556 Y44.722
G1 X7.333 Y44.500
G1 X6.889 Y44.500
G1 X6.667 Y44.722
M5        (Laser off)
G0 F3000.0
M5        (Laser off)
(Grid cell 3,1 )
(Power=20%, Speed=800)
G0 X10.111 Y43.000 F3000.0
G0 Z0.000
G1 F800.0
M4 S200.0 (Laser on @ 20%)
G1 X10.111 Y48.000 (Left)
G1 X15.111 Y48.000 (Top)
G1 X15.111 Y43.000 (Right)
G1 X10.111 Y43.000 (Bottom)
M5        (Laser off)
(Grid cell 3,2 )
(Power=30%, Speed=800)
G0 X17.111 Y43.000 F3000.0
G0 Z0.000
G1 F800.0
M4 S300.0 (Laser on @ 30%)
G1 X17.111 Y48.000 (Left)
G1 X22.111 Y48.000 (Top)
G1 X22.111 Y43.000 (Right)
G1 X17.111 Y43.000 (Bottom)
M5        (Laser off)
(Grid cell 3,3 )
(Power=40%, Speed=800)
G0 X24.111 Y43.000 F3000.0
G0 Z0.000
G1 F800.0
M4 S400.0 (Laser on @ 40%)
G1 X24.111 Y48.000 (Left)
G1 X29.111 Y48.000 (Top)
G1 X29.111 Y43.000 (Right)
G1 X24.111 Y43.000 (Bottom)
M5        (Laser off)
(Grid cell 3,4 )
(Power=50%, Speed=800)
G0 X31.111 Y43.000 F3000.0
G0 Z0.000
G1 F800.0
M4 S500.0 (Laser on @ 50%)
G1 X31.111 Y48.000 (Left)
G1 X36.111 Y48.000 (Top)
G1 X36.111 Y43.000 (Right)
G1 X31.111 Y43.000 (Bottom)
M5        (Laser off)
(Grid cell 3,5 )
(Power=60%, Speed=800)
G0 X38.111 Y43.000 F3000.0
G0 Z0.000
G1 F800.0
M4 S600.0 (Laser on @ 60%)
G1 X38.111 Y48.000 (Left)
G1 X43.111 Y48.000 (Top)
G1 X43.111 Y43.000 (Right)
G1 X38.111 Y43.000 (Bottom)
M5        (Laser off)
(Grid cell 3,6 )
(Power=70%, Speed=800)
G0 X45.111 Y43.000 F3000.0
G0 Z0.000
G1 F800.0
M4 S700.0 (Laser on @ 70%)
G1 X45.111 Y48.000 (Left)
G1 X50.111 Y48.000 (Top)
G1 X50.111 Y43.000 (Right)
G1 X45.111 Y43.000 (Bottom)
M5        (Laser off)
(Grid cell 3,7 )
(Power=80%, Speed=800)
G0 X52.111 Y43.000 F3000.0
G0 Z0.000
G1 F800.0
M4 S800.0 (Laser on @ 80%)
G1 X52.111 Y48.000 (Left)
G1 X57.111 Y48.000 (Top)
G1 X57.111 Y43.000 (Right)
G1 X52.111 Y43.000 (Bottom)
M5        (Laser off)
(Grid cell 4,0 )
(Speed Label: 700)
G0 X3.556 Y37.500 F3000.0
G0 Z0.000
G1 F500.0
(Character: 7)
G1 X3.556 Y37.500
M4 S400.0 (Laser on @ 40%)
G1 F500.0
G1 X4.444 Y39.500
G1 X3.556 Y39.500
M5        (Laser off)
G0 F3000.0
(Character: 0)
G1 X5.111 Y37.722
M4 S400.0 (Laser on @ 40%)
G1 F500.0
G1 X5.111 Y39.278
G1 X5.333 Y39.500
G1 X5.778 Y39.500
G1 X6.000 Y39.278
G1 X6.000 Y37.722
G1 X5.778 Y37.500
G1 X5.333 Y37.500
G1 X5.111 Y37.722
M5        (Laser off)
G0 F3000.0
(Character: 0)
G1 X6.667 Y37.722
M4 S400.0 (Laser on @ 40%)
G1 F500.0
G1 X6.667 Y39.278
G1 X6.889 Y39.500
G1 X7.333 Y39.500
G1 X7.556 Y39.278
G1 X7.556 Y37.722
G1 X7.333 Y37.500
G1 X6.889 Y37.500
G1 X6.667 Y37.722
M5        (Laser off)
G0 F3000.0
M5        (Laser off)
(Grid cell 4,1 )
(Power=20%, Speed=700)
G0 X10.111 Y36.000 F3000.0
G0 Z0.000
G1 F700.0
M4 S200.0 (Laser on @ 20%)
G1 X10.111 Y41.000 (Left)
G1 X15.111 Y41.000 (Top)
G1 X15.111 Y36.000 (Right)
G1 X10.111 Y36.000 (Bottom)
M5        (Laser off)
(Grid cell 4,2 )
(Power=30%, Speed=700)
G0 X17.111 Y36.000 F3000.0
G0 Z0.000
G1 F700.0
M4 S300.0 (Laser on @ 30%)
G1 X17.111 Y41.000 (Left)
G1 X22.111 Y41.000 (Top)
G1 X22.111 Y36.000 (Right)
G1 X17.111 Y36.000 (Bottom)
M5        (Laser off)
(Grid cell 4,3 )
(Power=40%, Speed=700)
G0 X24.111 Y36.000 F3000.0
G0 Z0.000
G1 F700.0
M4 S400.0 (Laser on @ 40%)
G1 X24.111 Y41.000 (Left)
G1 X29.111 Y41.000 (Top)
G1 X29.111 Y36.000 (Right)
G1 X24.111 Y36.000 (Bottom)
M5        (Laser off)
(Grid cell 4,4 )
(Power=50%, Speed=700)
G0 X31.111 Y36.000 F3000.0
G0 Z0.000
G1 F700.0
M4 S500.0 (Laser on @ 50%)
G1 X31.111 Y41.000 (Left)
G1 X36.111 Y41.000 (Top)
G1 X36.111 Y36.000 (Right)
G1 X31.111 Y36.000 (Bottom)
M5        (Laser off)
(Grid cell 4,5 )
(Power=60%, Speed=700)
G0 X38.111 Y36.000 F3000.0
G0 Z0.000
G1 F700.0
M4 S600.0 (Laser on @ 60%)
G1 X38.111 Y41.000 (Left)
G1 X43.111 Y41.000 (Top)
G1 X43.111 Y36.000 (Right)
G1 X38.111 Y36.000 (Bottom)
M5        (Laser off)
(Grid cell 4,6 )
(Power=70%, Speed=700)
G0 X45.111 Y36.000 F3000.0
G0 Z0.000
G1 F700.0
M4 S700.0 (Laser on @ 70%)
G1 X45.111 Y41.000 (Left)
G1 X50.111 Y41.000 (Top)
G1 X50.111 Y36.000 (Right)
G1 X45.111 Y36.000 (Bottom)
M5        (Laser off)
(Grid cell 4,7 )
(Power=80%, Speed=700)
G0 X52.111 Y36.000 F3000.0
G0 Z0.000
G1 F700.0
M4 S800.0 (Laser on @ 80%)
G1 X52.111 Y41.000 (Left)
G1 X57.111 Y41.000 (Top)
G1 X57.111 Y36.000 (Right)
G1 X52.111 Y36.000 (Bottom)
M5        (Laser off)
(Grid cell 5,0 )
(Speed Label: 600)
G0 X3.556 Y30.500 F3000.0
G0 Z0.000
G1 F500.0
(Character: 6)
G1 X4.444 Y32.500
M4 S400.0 (Laser on @ 40%)
G1 F500.0
G1 X4.000 Y32.500
G1 X3.556 Y32.056
G1 X3.556 Y30.722
G1 X3.778 Y30.500
G1 X4.222 Y30.500
G1 X4.444 Y30.944
G1 X4.444 Y31.167
G1 X4.000 Y31.611
G1 X3.556 Y31.389
M5        (Laser off)
G0 F3000.0
(Character: 0)
G1 X5.111 Y30.722
M4 S400.0 (Laser on @ 40%)
G1 F500.0
G1 X5.111 Y32.278
G1 X5.333 Y32.500
G1 X5.778 Y32.500
G1 X6.000 Y32.278
G1 X6.000 Y30.722
G1 X5.778 Y30.500
G1 X5.333 Y30.500
G1 X5.111 Y30.722
M5        (Laser off)
G0 F3000.0
(Character: 0)
G1 X6.667 Y30.722
M4 S400.0 (Laser on @ 40%)
G1 F500.0
G1 X6.667 Y32.278
G1 X6.889 Y32.500
G1 X7.333 Y32.500
G1 X7.556 Y32.278
G1 X7.556 Y30.722
G1 X7.333 Y30.500
G1 X6.889 Y30.500
G1 X6.667 Y30.722
M5        (Laser off)
G0 F3000.0
M5        (Laser off)
(Grid cell 5,1 )
(Power=20%, Speed=600)
G0 X10.111 Y29.000 F3000.0
G0 Z0.000
G1 F600.0
M4 S200.0 (Laser on @ 20%)
G1 X10.111 Y34.000 (Left)
G1 X15.111 Y34.000 (Top)
G1 X15.111 Y29.000 (Right)
G1 X10.111 Y29.000 (Bottom)
M5        (Laser off)
(Grid cell 5,2 )
(Power=30%, Speed=600)
G0 X17.111 Y29.000 F3000.0
G0 Z0.000
G1 F600.0
M4 S300.0 (Laser on @ 30%)
G1 X17.111 Y34.000 (Left)
G1 X22.111 Y34.000 (Top)
G1 X22.111 Y29.000 (Right)
G1 X17.111 Y29.000 (Bottom)
M5        (Laser off)
(Grid cell 5,3 )
(Power=40%, Speed=600)
G0 X24.111 Y29.000 F3000.0
G0 Z0.000
G1 F600.0
M4 S400.0 (Laser on @ 40%)
G1 X24.111 Y34.000 (Left)
G1 X29.111 Y34.000 (Top)
G1 X29.111 Y29.000 (Right)
G1 X24.111 Y29.000 (Bottom)
M5        (Laser off)
(Grid cell 5,4 )
(Power=50%, Speed=600)
G0 X31.111 Y29.000 F3000.0
G0 Z0.000
G1 F600.0
M4 S500.0 (Laser on @ 50%)
G1 X31.111 Y34.000 (Left)
G1 X36.111 Y34.000 (Top)
G1 X36.111 Y29.000 (Right)
G1 X31.111 Y29.000 (Bottom)
M5        (Laser off)
(Grid cell 5,5 )
(Power=60%, Speed=600)
G0 X38.111 Y29.000 F3000.0
G0 Z0.000
G1 F600.0
M4 S600.0 (Laser on @ 60%)
G1 X38.111 Y34.000 (Left)
G1 X43.111 Y34.000 (Top)
G1 X43.111 Y29.000 (Right)
G1 X38.111 Y29.000 (Bottom)
M5        (Laser off)
(Grid cell 5,6 )
(Power=70%, Speed=600)
G0 X45.111 Y29.000 F3000.0
G0 Z0.000
G1 F600.0
M4 S700.0 (Laser on @ 70%)
G1 X45.111 Y34.000 (Left)
G1 X50.111 Y34.000 (Top)
G1 X50.111 Y29.000 (Right)
G1 X45.111 Y29.000 (Bottom)
M5        (Laser off)
(Grid cell 5,7 )
(Power=80%, Speed=600)
G0 X52.111 Y29.000 F3000.0
G0 Z0.000
G1 F600.0
M4 S800.0 (Laser on @ 80%)
G1 X52.111 Y34.000 (Left)
G1 X57.111 Y34.000 (Top)
G1 X57.111 Y29.000 (Right)
G1 X52.111 Y29.000 (Bottom)
M5        (Laser off)
(Grid cell 6,0 )
(Speed Label: 500)
G0 X3.556 Y23.500 F3000.0
G0 Z0.000
G1 F500.0
(Character: 5)
G1 X4.444 Y25.500
M4 S400.0 (Laser on @ 40%)
G1 F500.0
G1 X3.556 Y25.500
G1 X3.556 Y24.611
G1 X4.000 Y24.611
G1 X4.444 Y24.167
G1 X4.444 Y23.722
G1 X4.222 Y23.500
G1 X3.556 Y23.500
M5        (Laser off)
G0 F3000.0
(Character: 0)
G1 X5.111 Y23.722
M4 S400.0 (Laser on @ 40%)
G1 F500.0
G1 X5.111 Y25.278
G1 X5.333 Y25.500
G1 X5.778 Y25.500
G1 X6.000 Y25.278
G1 X6.000 Y23.722
G1 X5.778 Y23.500
G1 X5.333 Y23.500
G1 X5.111 Y23.722
M5        (Laser off)
G0 F3000.0
(Character: 0)
G1 X6.667 Y23.722
M4 S400.0 (Laser on @ 40%)
G1 F500.0
G1 X6.667 Y25.278
G1 X6.889 Y25.500
G1 X7.333 Y25.500
G1 X7.556 Y25.278
G1 X7.556 Y23.722
G1 X7.333 Y23.500
G1 X6.889 Y23.500
G1 X6.667 Y23.722
M5        (Laser off)
G0 F3000.0
M5        (Laser off)
(Grid cell 6,1 )
(Power=20%, Speed=500)
G0 X10.111 Y22.000 F3000.0
G0 Z0.000
G1 F500.0
M4 S200.0 (Laser on @ 20%)
G1 X10.111 Y27.000 (Left)
G1 X15.111 Y27.000 (Top)
G1 X15.111 Y22.000 (Right)
G1 X10.111 Y22.000 (Bottom)
M5        (Laser off)
(Grid cell 6,2 )
(Power=30%, Speed=500)
G0 X17.111 Y22.000 F3000.0
G0 Z0.000
G1 F500.0
M4 S300.0 (Laser on @ 30%)
G1 X17.111 Y27.000 (Left)
G1 X22.111 Y27.000 (Top)
G1 X22.111 Y22.000 (Right)
G1 X17.111 Y22.000 (Bottom)
M5        (Laser off)
(Grid cell 6,3 )
(Power=40%, Speed=500)
G0 X24.111 Y22.000 F3000.0
G0 Z0.000
G1 F500.0
M4 S400.0 (Laser on @ 40%)
G1 X24.111 Y27.000 (Left)
G1 X29.111 Y27.000 (Top)
G1 X29.111 Y22.000 (Right)
G1 X24.111 Y22.000 (Bottom)
M5        (Laser off)
(Grid cell 6,4 )
(Power=50%, Speed=500)
G0 X31.111 Y22.000 F3000.0
G0 Z0.000
G1 F500.0
M4 S500.0 (Laser on @ 50%)
G1 X31.111 Y27.000 (Left)
G1 X36.111 Y27.000 (Top)
G1 X36.111 Y22.000 (Right)
G1 X31.111 Y22.000 (Bottom)
M5        (Laser off)
(Grid cell 6,5 )
(Power=60%, Speed=500)
G0 X38.111 Y22.000 F3000.0
G0 Z0.000
G1 F500.0
M4 S600.0 (Laser on @ 60%)
G1 X38.111 Y27.000 (Left)
G1 X43.111 Y27.000 (Top)
G1 X43.111 Y22.000 (Right)
G1 X38.111 Y22.000 (Bottom)
M5        (Laser off)
(Grid cell 6,6 )
(Power=70%, Speed=500)
G0 X45.111 Y22.000 F3000.0
G0 Z0.000
G1 F500.0
M4 S700.0 (Laser on @ 70%)
G1 X45.111 Y27.000 (Left)
G1 X50.111 Y27.000 (Top)
G1 X50.111 Y22.000 (Right)
G1 X45.111 Y22.000 (Bottom)
M5        (Laser off)
(Grid cell 6,7 )
(Power=80%, Speed=500)
G0 X52.111 Y22.000 F3000.0
G0 Z0.000
G1 F500.0
M4 S800.0 (Laser on @ 80%)
G1 X52.111 Y27.000 (Left)
G1 X57.111 Y27.000 (Top)
G1 X57.111 Y22.000 (Right)
G1 X52.111 Y22.000 (Bottom)
M5        (Laser off)
(Grid cell 7,0 )
(Speed Label: 400)
G0 X3.556 Y16.500 F3000.0
G0 Z0.000
G1 F500.0
(Character: 4)
G1 X3.556 Y18.500
M4 S400.0 (Laser on @ 40%)
G1 F500.0
G1 X3.556 Y17.611
G1 X4.444 Y17.611
M5        (Laser off)
G0 F3000.0
G1 X4.444 Y18.500
M4 S400.0 (Laser on @ 40%)
G1 F500.0
G1 X4.444 Y16.500
M5        (Laser off)
G0 F3000.0
(Character: 0)
G1 X5.111 Y16.722
M4 S400.0 (Laser on @ 40%)
G1 F500.0
G1 X5.111 Y18.278
G1 X5.333 Y18.500
G1 X5.778 Y18.500
G1 X6.000 Y18.278
G1 X6.000 Y16.722
G1 X5.778 Y16.500
G1 X5.333 Y16.500
G1 X5.111 Y16.722
M5        (Laser off)
G0 F3000.0
(Character: 0)
G1 X6.667 Y16.722
M4 S400.0 (Laser on @ 40%)
G1 F500.0
G1 X6.667 Y18.278
G1 X6.889 Y18.500
G1 X7.333 Y18.500
G1 X7.556 Y18.278
G1 X7.556 Y16.722
G1 X7.333 Y16.500
G1 X6.889 Y16.500
G1 X6.667 Y16.722
M5        (Laser off)
G0 F3000.0
M5        (Laser off)
(Grid cell 7,1 )
(Power=20%, Speed=400)
G0 X10.111 Y15.000 F3000.0
G0 Z0.000
G1 F400.0
M4 S200.0 (Laser on @ 20%)
G1 X10.111 Y20.000 (Left)
G1 X15.111 Y20.000 (Top)
G1 X15.111 Y15.000 (Right)
G1 X10.111 Y15.000 (Bottom)
M5        (Laser off)
(Grid cell 7,2 )
(Power=30%, Speed=400)
G0 X17.111 Y15.000 F3000.0
G0 Z0.000
G1 F400.0
M4 S300.0 (Laser on @ 30%)
G1 X17.111 Y20.000 (Left)
G1 X22.111 Y20.000 (Top)
G1 X22.111 Y15.000 (Right)
G1 X17.111 Y15.000 (Bottom)
M5        (Laser off)
(Grid cell 7,3 )
(Power=40%, Speed=400)
G0 X24.111 Y15.000 F3000.0
G0 Z0.000
G1 F400.0
M4 S400.0 (Laser on @ 40%)
G1 X24.111 Y20.000 (Left)
G1 X29.111 Y20.000 (Top)
G1 X29.111 Y15.000 (Right)
G1 X24.111 Y15.000 (Bottom)
M5        (Laser off)
(Grid cell 7,4 )
(Power=50%, Speed=400)
G0 X31.111 Y15.000 F3000.0
G0 Z0.000
G1 F400.0
M4 S500.0 (Laser on @ 50%)
G1 X31.111 Y20.000 (Left)
G1 X36.111 Y20.000 (Top)
G1 X36.111 Y15.000 (Right)
G1 X31.111 Y15.000 (Bottom)
M5        (Laser off)
(Grid cell 7,5 )
(Power=60%, Speed=400)
G0 X38.111 Y15.000 F3000.0
G0 Z0.000
G1 F400.0
M4 S600.0 (Laser on @ 60%)
G1 X38.111 Y20.000 (Left)
G1 X43.111 Y20.000 (Top)
G1 X43.111 Y15.000 (Right)
G1 X38.111 Y15.000 (Bottom)
M5        (Laser off)
(Grid cell 7,6 )
(Power=70%, Speed=400)
G0 X45.111 Y15.000 F3000.0
G0 Z0.000
G1 F400.0
M4 S700.0 (Laser on @ 70%)
G1 X45.111 Y20.000 (Left)
G1 X50.111 Y20.000 (Top)
G1 X50.111 Y15.000 (Right)
G1 X45.111 Y15.000 (Bottom)
M5        (Laser off)
(Grid cell 7,7 )
(Power=80%, Speed=400)
G0 X52.111 Y15.000 F3000.0
G0 Z0.000
G1 F400.0
M4 S800.0 (Laser on @ 80%)
G1 X52.111 Y20.000 (Left)
G1 X57.111 Y20.000 (Top)
G1 X57.111 Y15.000 (Right)
G1 X52.111 Y15.000 (Bottom)
M5        (Laser off)
(Grid cell 8,0 )
(Speed Label: 300)
G0 X3.556 Y9.500 F3000.0
G0 Z0.000
G1 F500.0
(Character: 3)
G1 X3.556 Y9.722
M4 S400.0 (Laser on @ 40%)
G1 F500.0
G1 X4.000 Y9.500
G1 X4.444 Y9.722
G1 X4.444 Y10.389
G1 X4.222 Y10.611
G1 X3.778 Y10.611
M5        (Laser off)
G0 F3000.0
G1 X4.222 Y10.611
M4 S400.0 (Laser on @ 40%)
G1 F500.0
G1 X4.444 Y10.833
G1 X4.444 Y11.278
G1 X4.000 Y11.500
G1 X3.556 Y11.278
M5        (Laser off)
G0 F3000.0
(Character: 0)
G1 X5.111 Y9.722
M4 S400.0 (Laser on @ 40%)
G1 F500.0
G1 X5.111 Y11.278
G1 X5.333 Y11.500
G1 X5.778 Y11.500
G1 X6.000 Y11.278
G1 X6.000 Y9.722
G1 X5.778 Y9.500
G1 X5.333 Y9.500
G1 X5.111 Y9.722
M5        (Laser off)
G0 F3000.0
(Character: 0)
G1 X6.667 Y9.722
M4 S400.0 (Laser on @ 40%)
G1 F500.0
G1 X6.667 Y11.278
G1 X6.889 Y11.500
G1 X7.333 Y11.500
G1 X7.556 Y11.278
G1 X7.556 Y9.722
G1 X7.333 Y9.500
G1 X6.889 Y9.500
G1 X6.667 Y9.722
M5        (Laser off)
G0 F3000.0
M5        (Laser off)
(Grid cell 8,1 )
(Power=20%, Speed=300)
G0 X10.111 Y8.000 F3000.0
G0 Z0.000
G1 F300.0
M4 S200.0 (Laser on @ 20%)
G1 X10.111 Y13.000 (Left)
G1 X15.111 Y13.000 (Top)
G1 X15.111 Y8.000 (Right)
G1 X10.111 Y8.000 (Bottom)
M5        (Laser off)
(Grid cell 8,2 )
(Power=30%, Speed=300)
G0 X17.111 Y8.000 F3000.0
G0 Z0.000
G1 F300.0
M4 S300.0 (Laser on @ 30%)
G1 X17.111 Y13.000 (Left)
G1 X22.111 Y13.000 (Top)
G1 X22.111 Y8.000 (Right)
G1 X17.111 Y8.000 (Bottom)
M5        (Laser off)
(Grid cell 8,3 )
(Power=40%, Speed=300)
G0 X24.111 Y8.000 F3000.0
G0 Z0.000
G1 F300.0
M4 S400.0 (Laser on @ 40%)
G1 X24.111 Y13.000 (Left)
G1 X29.111 Y13.000 (Top)
G1 X29.111 Y8.000 (Right)
G1 X24.111 Y8.000 (Bottom)
M5        (Laser off)
(Grid cell 8,4 )
(Power=50%, Speed=300)
G0 X31.111 Y8.000 F3000.0
G0 Z0.000
G1 F300.0
M4 S500.0 (Laser on @ 50%)
G1 X31.111 Y13.000 (Left)
G1 X36.111 Y13.000 (Top)
G1 X36.111 Y8.000 (Right)
G1 X31.111 Y8.000 (Bottom)
M5        (Laser off)
(Grid cell 8,5 )
(Power=60%, Speed=300)
G0 X38.111 Y8.000 F3000.0
G0 Z0.000
G1 F300.0
M4 S600.0 (Laser on @ 60%)
G1 X38.111 Y13.000 (Left)
G1 X43.111 Y13.000 (Top)
G1 X43.111 Y8.000 (Right)
G1 X38.111 Y8.000 (Bottom)
M5        (Laser off)
(Grid cell 8,6 )
(Power=70%, Speed=300)
G0 X45.111 Y8.000 F3000.0
G0 Z0.000
G1 F300.0
M4 S700.0 (Laser on @ 70%)
G1 X45.111 Y13.000 (Left)
G1 X50.111 Y13.000 (Top)
G1 X50.111 Y8.000 (Right)
G1 X45.111 Y8.000 (Bottom)
M5        (Laser off)
(Grid cell 8,7 )
(Power=80%, Speed=300)
G0 X52.111 Y8.000 F3000.0
G0 Z0.000
G1 F300.0
M4 S800.0 (Laser on @ 80%)
G1 X52.111 Y13.000 (Left)
G1 X57.111 Y13.000 (Top)
G1 X57.111 Y8.000 (Right)
G1 X52.111 Y8.000 (Bottom)
M5        (Laser off)
(Grid cell 9,0 )
(Speed Label: 200)
G0 X3.556 Y2.500 F3000.0
G0 Z0.000
G1 F500.0
(Character: 2)
G1 X4.444 Y2.500
M4 S400.0 (Laser on @ 40%)
G1 F500.0
G1 X3.556 Y2.500
G1 X4.444 Y4.278
G1 X4.000 Y4.500
G1 X3.556 Y4.278
M5        (Laser off)
G0 F3000.0
(Character: 0)
G1 X5.111 Y2.722
M4 S400.0 (Laser on @ 40%)
G1 F500.0
G1 X5.111 Y4.278
G1 X5.333 Y4.500
G1 X5.778 Y4.500
G1 X6.000 Y4.278
G1 X6.000 Y2.722
G1 X5.778 Y2.500
G1 X5.333 Y2.500
G1 X5.111 Y2.722
M5        (Laser off)
G0 F3000.0
(Character: 0)
G1 X6.667 Y2.722
M4 S400.0 (Laser on @ 40%)
G1 F500.0
G1 X6.667 Y4.278
G1 X6.889 Y4.500
G1 X7.333 Y4.500
G1 X7.556 Y4.278
G1 X7.556 Y2.722
G1 X7.333 Y2.500
G1 X6.889 Y2.500
G1 X6.667 Y2.722
M5        (Laser off)
G0 F3000.0
M5        (Laser off)
(Grid cell 9,1 )
(Power=20%, Speed=200)
G0 X10.111 Y1.000 F3000.0
G0 Z0.000
G1 F200.0
M4 S200.0 (Laser on @ 20%)
G1 X10.111 Y6.000 (Left)
G1 X15.111 Y6.000 (Top)
G1 X15.111 Y1.000 (Right)
G1 X10.111 Y1.000 (Bottom)
M5        (Laser off)
(Grid cell 9,2 )
(Power=30%, Speed=200)
G0 X17.111 Y1.000 F3000.0
G0 Z0.000
G1 F200.0
M4 S300.0 (Laser on @ 30%)
G1 X17.111 Y6.000 (Left)
G1 X22.111 Y6.000 (Top)
G1 X22.111 Y1.000 (Right)
G1 X17.111 Y1.000 (Bottom)
M5        (Laser off)
(Grid cell 9,3 )
(Power=40%, Speed=200)
G0 X24.111 Y1.000 F3000.0
G0 Z0.000
G1 F200.0
M4 S400.0 (Laser on @ 40%)
G1 X24.111 Y6.000 (Left)
G1 X29.111 Y6.000 (Top)
G1 X29.111 Y1.000 (Right)
G1 X24.111 Y1.000 (Bottom)
M5        (Laser off)
(Grid cell 9,4 )
(Power=50%, Speed=200)
G0 X31.111 Y1.000 F3000.0
G0 Z0.000
G1 F200.0
M4 S500.0 (Laser on @ 50%)
G1 X31.111 Y6.000 (Left)
G1 X36.111 Y6.000 (Top)
G1 X36.111 Y1.000 (Right)
G1 X31.111 Y1.000 (Bottom)
M5        (Laser off)
(Grid cell 9,5 )
(Power=60%, Speed=200)
G0 X38.111 Y1.000 F3000.0
G0 Z0.000
G1 F200.0
M4 S600.0 (Laser on @ 60%)
G1 X38.111 Y6.000 (Left)
G1 X43.111 Y6.000 (Top)
G1 X43.111 Y1.000 (Right)
G1 X38.111 Y1.000 (Bottom)
M5        (Laser off)
(Grid cell 9,6 )
(Power=70%, Speed=200)
G0 X45.111 Y1.000 F3000.0
G0 Z0.000
G1 F200.0
M4 S700.0 (Laser on @ 70%)
G1 X45.111 Y6.000 (Left)
G1 X50.111 Y6.000 (Top)
G1 X50.111 Y1.000 (Right)
G1 X45.111 Y1.000 (Bottom)
M5        (Laser off)
(Grid cell 9,7 )
(Power=80%, Speed=200)
G0 X52.111 Y1.000 F3000.0
G0 Z0.000
G1 F200.0
M4 S800.0 (Laser on @ 80%)
G1 X52.111 Y6.000 (Left)
G1 X57.111 Y6.000 (Top)
G1 X57.111 Y1.000 (Right)
G1 X52.111 Y1.000 (Bottom)
M5        (Laser off)

M2 (End Document)
